; generated by PrusaSlicer 2.3.3 on 2021-12-05 at 10:02:49 UTC

; 

; external perimeters extrusion width = 0.45mm
; perimeters extrusion width = 0.45mm
; infill extrusion width = 0.45mm
; solid infill extrusion width = 0.45mm
; top infill extrusion width = 0.40mm
; first layer extrusion width = 0.42mm

M107
M190 S60 ; set bed temperature and wait for it to be reached
M104 S215 ; set temperature
;TYPE:Custom
G28 ; home all axes
G1 Z5 F5000 ; lift nozzle
M109 S215 ; set temperature and wait for it to be reached
G21 ; set units to millimeters
G90 ; use absolute coordinates
M82 ; use absolute distances for extrusion
G92 E0
; Filament gcode
;LAYER_CHANGE
;Z:0.25
;HEIGHT:0.25
G1 Z0.250 F7200.000
G1 E-2.00000 F2400.000
G92 E0
G1 X107.584 Y85.400 F7200.000
G1 E2.00000 F2400.000
;TYPE:Skirt
;WIDTH:0.42
G1 F3600.000
G1 X108.528 Y84.564 E2.04802
G1 X109.605 Y83.921 E2.09579
G1 X110.783 Y83.490 E2.14356
G1 X112.021 Y83.284 E2.19133
G1 X137.506 Y83.267 E3.16175
G1 X138.692 Y83.374 E3.20710
G1 X139.835 Y83.685 E3.25220
G1 X140.906 Y84.192 E3.29729
G1 X141.875 Y84.883 E3.34264
G1 X142.709 Y85.734 E3.38798
G1 X143.376 Y86.713 E3.43308
G1 X143.863 Y87.799 E3.47842
G1 X144.151 Y88.954 E3.52376
G1 X144.233 Y89.982 E3.56302
G1 X144.217 Y110.455 E4.34257
G1 X144.041 Y111.594 E4.38645
G1 X143.676 Y112.680 E4.43009
G1 X143.129 Y113.694 E4.47397
G1 X142.416 Y114.600 E4.51786
G1 X141.394 Y115.492 E4.56952
G1 X140.208 Y116.164 E4.62142
G1 X138.917 Y116.582 E4.67308
G1 X137.563 Y116.732 E4.72498
G1 X112.090 Y116.720 E5.69492
G1 X110.937 Y116.549 E5.73929
G1 X109.838 Y116.184 E5.78341
G1 X108.817 Y115.636 E5.82754
G1 X107.900 Y114.916 E5.87191
G1 X107.008 Y113.894 E5.92357
G1 X106.336 Y112.708 E5.97547
G1 X105.918 Y111.417 E6.02713
G1 X105.768 Y110.069 E6.07879
G1 X105.785 Y89.507 E6.86175
G1 X105.966 Y88.375 E6.90539
G1 X106.334 Y87.296 E6.94879
G1 X106.878 Y86.295 E6.99218
G1 X107.547 Y85.447 E7.03330
G1 X107.835 Y85.677 F7200.000
G1 F3600.000
G1 X108.770 Y84.841 E7.08108
G1 X109.789 Y84.240 E7.12611
G1 X110.901 Y83.838 E7.17114
G1 X112.075 Y83.648 E7.21641
G1 X137.506 Y83.634 E8.18478
G1 X138.629 Y83.734 E8.22769
G1 X139.721 Y84.034 E8.27083
G1 X140.744 Y84.522 E8.31397
G1 X141.659 Y85.180 E8.35688
G1 X142.447 Y85.993 E8.40002
G1 X143.076 Y86.928 E8.44293
G1 X143.530 Y87.959 E8.48583
G1 X143.796 Y89.054 E8.52874
G1 X143.866 Y89.986 E8.56431
G1 X143.853 Y110.417 E9.34229
G1 X143.686 Y111.507 E9.38425
G1 X143.333 Y112.551 E9.42621
G1 X142.806 Y113.518 E9.46817
G1 X142.120 Y114.381 E9.51013
G1 X141.154 Y115.214 E9.55871
G1 X140.035 Y115.840 E9.60752
G1 X138.820 Y116.228 E9.65610
G1 X137.545 Y116.366 E9.70491
G1 X112.120 Y116.355 E10.67304
G1 X111.018 Y116.191 E10.71548
G1 X109.967 Y115.841 E10.75767
G1 X108.987 Y115.309 E10.80011
G1 X108.119 Y114.620 E10.84230
G1 X107.286 Y113.654 E10.89088
G1 X106.660 Y112.535 E10.93969
G1 X106.272 Y111.320 E10.98827
G1 X106.134 Y110.051 E11.03685
G1 X106.150 Y89.545 E11.81767
G1 X106.320 Y88.469 E11.85916
G1 X106.674 Y87.432 E11.90088
G1 X107.201 Y86.471 E11.94260
G1 X107.797 Y85.724 E11.97902
G1 E9.97902 F2400.000
G92 E0
G1 X113.643 Y91.143 F7200.000
G1 E2.00000 F2400.000
;TYPE:Perimeter
G1 F2250.000
G1 X122.357 Y91.143 E2.33183
G1 X122.357 Y108.857 E3.00636
G1 X113.643 Y108.857 E3.33819
G1 X113.643 Y104.134 E3.51803
G1 X114.031 Y104.364 E3.53522
G1 X115.184 Y103.706 E3.58576
G1 X115.184 Y96.294 E3.86801
G1 X114.031 Y95.636 E3.91855
G1 X113.643 Y95.866 E3.93574
G1 X113.643 Y91.203 E4.11330
G1 E2.11330 F2400.000
G92 E0
G1 X114.035 Y103.940 F7200.000
G1 E2.00000 F2400.000
G1 F2250.000
G1 X114.818 Y103.494 E2.03433
G1 X114.818 Y96.506 E2.30038
G1 X114.035 Y96.060 E2.33472
G1 X113.588 Y96.324 E2.35448
G1 X113.276 Y96.324 E2.36634
G1 X113.276 Y90.776 E2.57757
G1 X122.724 Y90.776 E2.93730
G1 X122.724 Y109.224 E3.63973
G1 X113.276 Y109.224 E3.99946
G1 X113.276 Y103.676 E4.21069
G1 X113.588 Y103.676 E4.22255
G1 X113.983 Y103.910 E4.24003
G1 X114.038 Y103.517 F7200.000
;TYPE:External perimeter
G1 F1125.000
G1 X114.451 Y103.281 E4.25816
G1 X114.451 Y96.719 E4.50801
G1 X114.038 Y96.483 E4.52614
G1 X113.688 Y96.690 E4.54162
G1 X112.910 Y96.690 E4.57124
G1 X112.910 Y90.410 E4.81036
G1 X123.090 Y90.410 E5.19799
G1 X123.090 Y109.590 E5.92832
G1 X112.910 Y109.590 E6.31595
G1 X112.910 Y103.310 E6.55508
G1 X113.688 Y103.310 E6.58470
G1 X113.986 Y103.486 E6.59789
G1 X114.327 Y103.793 F7200.000
G1 E4.59789 F2400.000
G92 E0
G1 X114.498 Y108.747 F7200.000
G1 E2.00000 F2400.000
;TYPE:Solid infill
;WIDTH:0.422235
G1 F1500.000
G1 X113.917 Y108.167 E2.03144
G1 X113.917 Y107.646 E2.05141
G1 X114.854 Y108.583 E2.10217
G1 X115.375 Y108.583 E2.12214
G1 X113.917 Y107.125 E2.20113
G1 X113.917 Y106.603 E2.22110
G1 X115.897 Y108.583 E2.32833
G1 X116.418 Y108.583 E2.34830
G1 X113.917 Y106.082 E2.48378
G1 X113.917 Y105.561 E2.50375
G1 X116.939 Y108.583 E2.66746
G1 X117.460 Y108.583 E2.68743
G1 X113.917 Y105.039 E2.87939
G1 X113.917 Y104.616 E2.89562
G1 X114.029 Y104.682 E2.90059
G1 X114.062 Y104.663 E2.90205
G1 X117.982 Y108.583 E3.11441
G1 X118.503 Y108.583 E3.13438
G1 X114.394 Y104.473 E3.35700
G1 X114.726 Y104.284 E3.37164
G1 X119.024 Y108.583 E3.60452
G1 X119.546 Y108.583 E3.62449
G1 X115.058 Y104.095 E3.86763
G1 X115.390 Y103.905 E3.88227
G1 X120.067 Y108.583 E4.13568
G1 X120.588 Y108.583 E4.15565
G1 X115.459 Y103.453 E4.43354
G1 X115.459 Y102.932 E4.45351
G1 X121.109 Y108.583 E4.75964
G1 X121.631 Y108.583 E4.77961
G1 X115.459 Y102.411 E5.11398
G1 X115.459 Y101.890 E5.13395
G1 X122.083 Y108.513 E5.49281
G1 X122.083 Y107.992 E5.51278
G1 X115.459 Y101.368 E5.87164
G1 X115.459 Y100.847 E5.89161
G1 X122.083 Y107.471 E6.25047
G1 X122.083 Y106.950 E6.27044
G1 X115.459 Y100.326 E6.62930
G1 X115.459 Y99.805 E6.64927
G1 X122.083 Y106.428 E7.00813
G1 X122.083 Y105.907 E7.02810
G1 X115.459 Y99.283 E7.38696
G1 X115.459 Y98.762 E7.40693
G1 X122.083 Y105.386 E7.76579
G1 X122.083 Y104.864 E7.78576
G1 X115.459 Y98.241 E8.14462
G1 X115.459 Y97.720 E8.16459
G1 X122.083 Y104.343 E8.52345
G1 X122.083 Y103.822 E8.54342
G1 X115.459 Y97.198 E8.90228
G1 X115.459 Y96.677 E8.92225
G1 X122.083 Y103.301 E9.28111
G1 X122.083 Y102.779 E9.30108
G1 X113.917 Y94.614 E9.74345
G1 X113.917 Y94.093 E9.76342
G1 X122.083 Y102.258 E10.20579
G1 X122.083 Y101.737 E10.22576
G1 X113.917 Y93.572 E10.66813
G1 X113.917 Y93.051 E10.68810
G1 X122.083 Y101.216 E11.13048
G1 X122.083 Y100.694 E11.15045
G1 X113.917 Y92.529 E11.59282
G1 X113.917 Y92.008 E11.61279
G1 X122.083 Y100.173 E12.05516
G1 X122.083 Y99.652 E12.07513
G1 X113.917 Y91.487 E12.51751
G1 X113.917 Y91.417 E12.52016
G1 X114.369 Y91.417 E12.53748
G1 X122.083 Y99.131 E12.95537
G1 X122.083 Y98.609 E12.97534
G1 X114.891 Y91.417 E13.36499
G1 X115.412 Y91.417 E13.38495
G1 X122.083 Y98.088 E13.74636
G1 X122.083 Y97.567 E13.76633
G1 X115.933 Y91.417 E14.09950
G1 X116.454 Y91.417 E14.11947
G1 X122.083 Y97.046 E14.42440
G1 X122.083 Y96.524 E14.44437
G1 X116.976 Y91.417 E14.72105
G1 X117.497 Y91.417 E14.74102
G1 X122.083 Y96.003 E14.98947
G1 X122.083 Y95.482 E15.00943
G1 X118.018 Y91.417 E15.22964
G1 X118.539 Y91.417 E15.24961
G1 X122.083 Y94.961 E15.44157
G1 X122.083 Y94.439 E15.46154
G1 X119.061 Y91.417 E15.62526
G1 X119.582 Y91.417 E15.64523
G1 X122.083 Y93.918 E15.78071
G1 X122.083 Y93.397 E15.80068
G1 X120.103 Y91.417 E15.90792
G1 X120.624 Y91.417 E15.92789
G1 X122.083 Y92.876 E16.00689
G1 X122.083 Y92.354 E16.02686
G1 X121.146 Y91.417 E16.07762
G1 X121.667 Y91.417 E16.09759
G1 X122.247 Y91.998 E16.12903
G1 E14.12903 F2400.000
G92 E0
G1 X114.637 Y95.855 F7200.000
G1 E2.00000 F2400.000
G1 F1500.000
G1 X113.753 Y94.971 E2.04790
G1 E0.04790 F2400.000
G92 E0
G1 X134.643 Y91.143 F7200.000
G1 E2.00000 F2400.000
;TYPE:Perimeter
;WIDTH:0.42
G1 F900.000
G1 X136.357 Y91.143 E2.06529
G1 X136.357 Y108.857 E2.73982
G1 X134.643 Y108.857 E2.80511
G1 X134.643 Y91.203 E3.47735
G1 X134.276 Y90.776 F7200.000
G1 F2250.000
G1 X136.724 Y90.776 E3.57054
G1 X136.724 Y109.224 E4.27297
G1 X134.276 Y109.224 E4.36616
G1 X134.276 Y90.836 E5.06630
G1 X133.910 Y90.410 F7200.000
;TYPE:External perimeter
G1 F1125.000
G1 X137.090 Y90.410 E5.18739
G1 X137.090 Y109.590 E5.91771
G1 X133.910 Y109.590 E6.03880
G1 X133.910 Y90.470 E6.76685
G1 X134.267 Y90.591 F7200.000
G1 E4.76685 F2400.000
G92 E0
G1 X135.510 Y108.747 F7200.000
G1 E2.00000 F2400.000
;TYPE:Solid infill
;WIDTH:0.428081
G1 F1500.000
G1 X134.917 Y108.155 E2.03262
G1 X134.917 Y107.625 E2.05323
G1 X135.875 Y108.583 E2.10593
G1 X136.083 Y108.583 E2.11401
G1 X136.083 Y108.261 E2.12653
G1 X134.917 Y107.096 E2.19066
G1 X134.917 Y106.566 E2.21127
G1 X136.083 Y107.731 E2.27539
G1 X136.083 Y107.202 E2.29600
G1 X134.917 Y106.037 E2.36013
G1 X134.917 Y105.507 E2.38073
G1 X136.083 Y106.672 E2.44486
G1 X136.083 Y106.143 E2.46547
G1 X134.917 Y104.978 E2.52959
G1 X134.917 Y104.448 E2.55020
G1 X136.083 Y105.613 E2.61433
G1 X136.083 Y105.084 E2.63494
G1 X134.917 Y103.918 E2.69906
G1 X134.917 Y103.389 E2.71967
G1 X136.083 Y104.554 E2.78380
G1 X136.083 Y104.025 E2.80440
G1 X134.917 Y102.859 E2.86853
G1 X134.917 Y102.330 E2.88914
G1 X136.083 Y103.495 E2.95326
G1 X136.083 Y102.965 E2.97387
G1 X134.917 Y101.800 E3.03800
G1 X134.917 Y101.271 E3.05860
G1 X136.083 Y102.436 E3.12273
G1 X136.083 Y101.906 E3.14334
G1 X134.917 Y100.741 E3.20746
G1 X134.917 Y100.212 E3.22807
G1 X136.083 Y101.377 E3.29220
G1 X136.083 Y100.847 E3.31280
G1 X134.917 Y99.682 E3.37693
G1 X134.917 Y99.153 E3.39754
G1 X136.083 Y100.318 E3.46166
G1 X136.083 Y99.788 E3.48227
G1 X134.917 Y98.623 E3.54640
G1 X134.917 Y98.094 E3.56701
G1 X136.083 Y99.259 E3.63113
G1 X136.083 Y98.729 E3.65174
G1 X134.917 Y97.564 E3.71587
G1 X134.917 Y97.035 E3.73647
G1 X136.083 Y98.200 E3.80060
G1 X136.083 Y97.670 E3.82121
G1 X134.917 Y96.505 E3.88533
G1 X134.917 Y95.976 E3.90594
G1 X136.083 Y97.141 E3.97007
G1 X136.083 Y96.611 E3.99067
G1 X134.917 Y95.446 E4.05480
G1 X134.917 Y94.917 E4.07541
G1 X136.083 Y96.082 E4.13953
G1 X136.083 Y95.552 E4.16014
G1 X134.917 Y94.387 E4.22427
G1 X134.917 Y93.857 E4.24488
G1 X136.083 Y95.023 E4.30900
G1 X136.083 Y94.493 E4.32961
G1 X134.917 Y93.328 E4.39373
G1 X134.917 Y92.798 E4.41434
G1 X136.083 Y93.964 E4.47847
G1 X136.083 Y93.434 E4.49908
G1 X134.917 Y92.269 E4.56320
G1 X134.917 Y91.739 E4.58381
G1 X136.083 Y92.904 E4.64794
G1 X136.083 Y92.375 E4.66854
G1 X135.125 Y91.417 E4.72124
G1 X135.655 Y91.417 E4.74185
G1 X136.247 Y92.010 E4.77448
;LAYER_CHANGE
;Z:0.45
;HEIGHT:0.2
G1 Z0.450 F7200.000
G1 X134.539 Y91.039
;TYPE:Perimeter
;WIDTH:0.45
G1 F1800.000
G1 X136.461 Y91.039 E4.83953
G1 X136.461 Y108.961 E5.44616
G1 X134.539 Y108.961 E5.51120
G1 X134.539 Y91.099 E6.11580
G1 X134.132 Y90.632 F7200.000
G1 F4500.000
G1 X136.868 Y90.632 E6.20841
G1 X136.868 Y109.368 E6.84259
G1 X134.132 Y109.368 E6.93520
G1 X134.132 Y90.692 E7.56735
G1 X133.725 Y90.410 F7200.000
;TYPE:External perimeter
G1 F2250.000
G1 X133.725 Y90.225 E7.57361
G1 X137.275 Y90.225 E7.69378
G1 X137.275 Y109.775 E8.35552
G1 X133.725 Y109.775 E8.47568
G1 X133.725 Y90.470 E9.12914
G1 X133.879 Y90.308 F7200.000
G1 X135.496 Y108.839
;TYPE:Solid infill
;WIDTH:0.459392
G1 F3000.000
G1 X136.156 Y108.179 E9.16144
G1 X136.156 Y107.590 E9.18184
G1 X135.090 Y108.656 E9.23402
G1 X134.844 Y108.656 E9.24252
G1 X134.844 Y108.312 E9.25441
G1 X136.156 Y107.001 E9.31862
G1 X136.156 Y106.412 E9.33902
G1 X134.844 Y107.723 E9.40323
G1 X134.844 Y107.134 E9.42363
G1 X136.156 Y105.823 E9.48784
G1 X136.156 Y105.234 E9.50823
G1 X134.844 Y106.545 E9.57244
G1 X134.844 Y105.956 E9.59284
G1 X136.156 Y104.645 E9.65705
G1 X136.156 Y104.056 E9.67744
G1 X134.844 Y105.367 E9.74165
G1 X134.844 Y104.778 E9.76205
G1 X136.156 Y103.467 E9.82626
G1 X136.156 Y102.878 E9.84666
G1 X134.844 Y104.189 E9.91087
G1 X134.844 Y103.600 E9.93126
G1 X136.156 Y102.289 E9.99547
G1 X136.156 Y101.700 E10.01587
G1 X134.844 Y103.011 E10.08008
G1 X134.844 Y102.422 E10.10048
G1 X136.156 Y101.111 E10.16469
G1 X136.156 Y100.522 E10.18508
G1 X134.844 Y101.833 E10.24929
G1 X134.844 Y101.244 E10.26969
G1 X136.156 Y99.933 E10.33390
G1 X136.156 Y99.344 E10.35429
G1 X134.844 Y100.655 E10.41850
G1 X134.844 Y100.067 E10.43890
G1 X136.156 Y98.755 E10.50311
G1 X136.156 Y98.166 E10.52351
G1 X134.844 Y99.478 E10.58772
G1 X134.844 Y98.889 E10.60811
G1 X136.156 Y97.577 E10.67232
G1 X136.156 Y96.988 E10.69272
G1 X134.844 Y98.300 E10.75693
G1 X134.844 Y97.711 E10.77733
G1 X136.156 Y96.399 E10.84154
G1 X136.156 Y95.811 E10.86193
G1 X134.844 Y97.122 E10.92614
G1 X134.844 Y96.533 E10.94654
G1 X136.156 Y95.222 E11.01075
G1 X136.156 Y94.633 E11.03115
G1 X134.844 Y95.944 E11.09536
G1 X134.844 Y95.355 E11.11575
G1 X136.156 Y94.044 E11.17996
G1 X136.156 Y93.455 E11.20036
G1 X134.844 Y94.766 E11.26457
G1 X134.844 Y94.177 E11.28496
G1 X136.156 Y92.866 E11.34917
G1 X136.156 Y92.277 E11.36957
G1 X134.844 Y93.588 E11.43378
G1 X134.844 Y92.999 E11.45418
G1 X136.156 Y91.688 E11.51839
G1 X136.156 Y91.344 E11.53027
G1 X135.910 Y91.344 E11.53878
G1 X134.844 Y92.410 E11.59096
G1 X134.844 Y91.821 E11.61135
G1 X135.504 Y91.161 E11.64365
G1 E9.64365 F2400.000
G92 E0
G1 X115.335 Y105.014 F7200.000
G1 E2.00000 F2400.000
;TYPE:Perimeter
;WIDTH:0.45
G1 F4500.000
G1 X115.335 Y94.986 E2.33945
G1 X113.539 Y96.047 E2.41006
G1 X113.539 Y91.039 E2.57958
G1 X122.461 Y91.039 E2.88157
G1 X122.461 Y108.961 E3.48819
G1 X113.539 Y108.961 E3.79018
G1 X113.539 Y103.953 E3.95969
G1 X115.284 Y104.984 E4.02828
G1 X114.928 Y104.301 F7200.000
G1 F4500.000
G1 X114.928 Y95.699 E4.31943
G1 X113.627 Y96.468 E4.37058
G1 X113.132 Y96.468 E4.38734
G1 X113.132 Y90.632 E4.58488
G1 X122.868 Y90.632 E4.91442
G1 X122.868 Y109.368 E5.54861
G1 X113.132 Y109.368 E5.87816
G1 X113.132 Y103.532 E6.07569
G1 X113.627 Y103.532 E6.09245
G1 X114.876 Y104.270 E6.14157
G1 X114.521 Y103.587 F7200.000
;TYPE:External perimeter
G1 F2250.000
G1 X114.521 Y96.413 E6.38443
G1 X113.738 Y96.875 E6.41520
G1 X112.725 Y96.875 E6.44950
G1 X112.725 Y90.225 E6.67460
G1 X123.275 Y90.225 E7.03170
G1 X123.275 Y109.775 E7.69345
G1 X112.725 Y109.775 E8.05055
G1 X112.725 Y103.125 E8.27565
G1 X113.738 Y103.125 E8.30995
G1 X114.469 Y103.557 E8.33869
G1 X114.920 Y103.621 F7200.000
G1 X113.661 Y104.926
;TYPE:Solid infill
;WIDTH:0.458327
G1 F3000.000
G1 X114.005 Y104.583 E8.35547
G1 X114.374 Y104.801 E8.37028
G1 X113.844 Y105.330 E8.39615
G1 X113.844 Y105.918 E8.41645
G1 X114.743 Y105.019 E8.46035
G1 X115.113 Y105.237 E8.47517
G1 X113.661 Y106.689 E8.54607
G1 X121.498 Y108.839 F7200.000
G1 F3000.000
G1 X122.156 Y108.181 E8.57818
G1 X122.156 Y107.594 E8.59847
G1 X121.094 Y108.656 E8.65033
G1 X120.506 Y108.656 E8.67062
G1 X122.156 Y107.006 E8.75118
G1 X122.156 Y106.419 E8.77148
G1 X119.919 Y108.656 E8.88073
G1 X119.331 Y108.656 E8.90102
G1 X122.156 Y105.831 E9.03898
G1 X122.156 Y105.244 E9.05927
G1 X118.744 Y108.656 E9.22592
G1 X118.156 Y108.656 E9.24621
G1 X122.156 Y104.657 E9.44156
G1 X122.156 Y104.069 E9.46185
G1 X117.569 Y108.656 E9.68590
G1 X116.982 Y108.656 E9.70619
G1 X122.156 Y103.482 E9.95893
G1 X122.156 Y102.894 E9.97923
G1 X116.394 Y108.656 E10.26067
G1 X115.807 Y108.656 E10.28096
G1 X122.156 Y102.307 E10.59110
G1 X122.156 Y101.719 E10.61139
G1 X115.219 Y108.656 E10.95022
G1 X114.632 Y108.656 E10.97051
G1 X122.156 Y101.132 E11.33805
G1 X122.156 Y100.544 E11.35834
G1 X114.044 Y108.656 E11.75457
G1 X113.844 Y108.656 E11.76147
G1 X113.844 Y108.268 E11.77486
G1 X122.156 Y99.957 E12.18085
G1 X122.156 Y99.369 E12.20114
G1 X113.844 Y107.680 E12.60713
G1 X113.844 Y107.093 E12.62742
G1 X122.156 Y98.782 E13.03340
G1 X122.156 Y98.194 E13.05370
G1 X115.640 Y104.709 E13.37195
G1 X115.640 Y104.122 E13.39224
G1 X122.156 Y97.607 E13.71049
G1 X122.156 Y97.019 E13.73078
G1 X115.640 Y103.534 E14.04904
G1 X115.640 Y102.947 E14.06933
G1 X122.156 Y96.432 E14.38758
G1 X122.156 Y95.844 E14.40787
G1 X115.640 Y102.359 E14.72612
G1 X115.640 Y101.772 E14.74642
G1 X122.156 Y95.257 E15.06467
G1 X122.156 Y94.669 E15.08496
G1 X115.640 Y101.184 E15.40321
G1 X115.640 Y100.597 E15.42350
G1 X122.156 Y94.082 E15.74176
G1 X122.156 Y93.494 E15.76205
G1 X115.640 Y100.010 E16.08030
G1 X115.640 Y99.422 E16.10059
G1 X122.156 Y92.907 E16.41884
