; generated by PrusaSlicer 2.7.1 on 2024-05-21 at 19:33:38 UTC

; 

; external perimeters extrusion width = 0.45mm
; perimeters extrusion width = 0.45mm
; infill extrusion width = 0.45mm
; solid infill extrusion width = 0.45mm
; top infill extrusion width = 0.40mm
; support material extrusion width = 0.35mm
; first layer extrusion width = 0.42mm

M190 S60 ; set bed temperature and wait for it to be reached
M104 S215 ; set temperature
;TYPE:Custom
G28 ; home all axes
G1 Z5 F5000 ; lift nozzle
M109 S215 ; set temperature and wait for it to be reached
G21 ; set units to millimeters
G90 ; use absolute coordinates
M82 ; use absolute distances for extrusion
G92 E0
; Filament gcode
M107
;LAYER_CHANGE
;Z:0.25
;HEIGHT:0.25
G1 Z.25 F7200
G1 E-2 F2400
G92 E0
G1 X83.457 Y59.632 F7200
G1 E2 F2400
;TYPE:Skirt/Brim
;WIDTH:0.42
G1 F3600
G1 X84.51 Y58.338 E2.06353
G1 X86.061 Y56.826 E2.14601
G1 X87.38 Y55.806 E2.2095
G1 X89.09 Y54.761 E2.28581
G1 X90.6 Y54.053 E2.34931
G1 X91.852 Y53.597 E2.40005
G1 X93.464 Y53.169 E2.46356
G1 X95.942 Y52.833 E2.55878
G1 X108.544 Y52.802 E3.03864
G1 X109.617 Y52.888 E3.07963
G1 X118.548 Y54.33 E3.42411
G1 X120.733 Y55.086 E3.51215
G1 X122.534 Y56.536 E3.60019
G1 X123.738 Y58.509 E3.6882
G1 X124.206 Y60.872 E3.77993
G1 X124.61 Y86.872 E4.77007
G1 X124.611 Y104.092 E5.42577
G1 X124.214 Y106.37 E5.51382
G1 X123.07 Y108.379 E5.60185
G1 X121.313 Y109.883 E5.68992
G1 X118.952 Y110.739 E5.78555
G1 X110.021 Y112.181 E6.13003
G1 X108.948 Y112.267 E6.17102
G1 X96.682 Y112.253 E6.63808
G1 X94.688 Y112.053 E6.71439
G1 X92.577 Y111.571 E6.79684
G1 X90.695 Y110.886 E6.8731
G1 X88.481 Y109.723 E6.96833
G1 X86.722 Y108.459 E7.05081
G1 X85.233 Y107.074 E7.12824
G1 X83.744 Y105.276 E7.21713
G1 X82.536 Y103.317 E7.30477
G1 X81.702 Y101.461 E7.38225
G1 X81.074 Y99.421 E7.46353
G1 X80.768 Y97.782 E7.52702
G1 X80.619 Y95.889 E7.59932
G1 X80.214 Y69.784 E8.59346
G1 X80.364 Y67.288 E8.68867
G1 X80.846 Y64.973 E8.77871
G1 X81.431 Y63.266 E8.84742
G1 X82.371 Y61.315 E8.92988
G1 X83.425 Y59.682 E9.00389
G1 X83.732 Y59.881 F7200
G1 F3600
G1 X83.749 Y59.853 E9.00514
G1 X84.779 Y58.588 E9.06726
G1 X85.929 Y57.431 E9.12938
G1 X87.594 Y56.103 E9.21048
G1 X88.978 Y55.239 E9.27261
G1 X90.733 Y54.394 E9.34678
G1 X93.059 Y53.637 E9.43992
G1 X94.348 Y53.377 E9.48999
G1 X95.969 Y53.199 E9.55208
G1 X108.544 Y53.168 E10.03091
G1 X109.559 Y53.25 E10.06968
G1 X118.489 Y54.692 E10.41412
G1 X120.61 Y55.437 E10.49972
G1 X122.34 Y56.872 E10.58531
G1 X123.464 Y58.819 E10.67091
G1 X123.84 Y60.878 E10.75061
G1 X124.244 Y86.878 E11.74075
G1 X124.245 Y104.092 E12.39622
G1 X123.848 Y106.305 E12.48183
G1 X122.707 Y108.242 E12.56743
G1 X120.964 Y109.661 E12.65301
G1 X118.893 Y110.377 E12.73645
G1 X109.963 Y111.82 E13.08089
G1 X108.948 Y111.901 E13.11966
G1 X96.691 Y111.887 E13.58638
G1 X94.752 Y111.693 E13.66058
G1 X92.676 Y111.219 E13.74166
G1 X90.845 Y110.552 E13.81586
G1 X88.68 Y109.415 E13.90898
G1 X86.951 Y108.172 E13.99006
G1 X85.501 Y106.824 E14.06545
G1 X84.042 Y105.063 E14.15253
G1 X82.858 Y103.141 E14.23849
G1 X82.046 Y101.336 E14.31385
G1 X81.429 Y99.331 E14.39373
G1 X81.13 Y97.727 E14.45586
G1 X80.985 Y95.883 E14.52629
G1 X80.58 Y69.784 E15.5202
G1 X80.726 Y67.342 E15.61335
G1 X81.198 Y65.072 E15.70163
G1 X81.768 Y63.408 E15.76861
G1 X82.692 Y61.49 E15.84968
G1 X83.699 Y59.931 E15.92035
G1 E13.92035 F2400
G92 E0
G1 X83.699 Y59.931 F7200
G1 X117.878 Y104.092
G1 E2 F2400
;TYPE:Support material
G1 F3600
G1 X109.383 Y104.092 E2.32347
G1 X109.383 Y98.37 E2.54135
G1 X110.319 Y98.37 E2.57699
G1 X110.553 Y98.522 E2.58761
G1 X111.008 Y98.275 E2.60732
G1 X111.008 Y92.795 E2.81599
G1 X110.553 Y92.548 E2.8357
G1 X110.319 Y92.7 E2.84632
G1 X109.383 Y92.7 E2.88196
G1 X109.383 Y86.977 E3.09988
G1 X117.878 Y86.977 E3.42335
G1 X117.878 Y104.037 E4.07295
G1 X117.182 Y103.927 F7200
G1 F3600
G1 X117.182 Y87.307 E4.7058
G1 X116.775 Y87.307 E4.7213
G1 X116.775 Y103.763 E5.34791
G1 X116.368 Y103.763 E5.36341
G1 X116.368 Y87.307 E5.99002
G1 X115.961 Y87.307 E6.00552
G1 X115.961 Y103.763 E6.63213
G1 X115.553 Y103.763 E6.64767
G1 X115.553 Y87.307 E7.27428
G1 X115.146 Y87.307 E7.28978
G1 X115.146 Y103.763 E7.91639
G1 X114.739 Y103.763 E7.93189
G1 X114.739 Y87.307 E8.5585
G1 X114.332 Y87.307 E8.574
G1 X114.332 Y103.763 E9.20061
G1 X113.925 Y103.763 E9.21611
G1 X113.925 Y87.307 E9.84272
G1 X113.518 Y87.307 E9.85822
G1 X113.518 Y103.763 E10.48483
G1 X113.111 Y103.763 E10.50033
G1 X113.111 Y87.307 E11.12694
G1 X112.704 Y87.307 E11.14244
G1 X112.704 Y103.763 E11.76905
G1 X112.297 Y103.763 E11.78455
G1 X112.297 Y87.307 E12.41116
G1 X111.89 Y87.307 E12.42666
G1 X111.89 Y103.763 E13.05327
G1 X111.483 Y103.763 E13.06877
G1 X111.483 Y87.307 E13.69538
G1 X111.076 Y87.307 E13.71088
G1 X111.076 Y92.456 E13.90694
G1 X110.669 Y92.235 E13.92457
G1 X110.669 Y87.307 E14.11222
G1 X110.262 Y87.307 E14.12772
G1 X110.262 Y92.344 E14.31952
G1 X109.855 Y92.37 E14.33505
G1 X109.855 Y87.142 E14.53412
G1 E12.53412 F2400
G92 E0
G1 X109.855 Y87.142 F7200
G1 X111.076 Y103.927
G1 E2 F2400
G1 F3600
G1 X111.076 Y98.613 E2.20234
G1 X110.669 Y98.834 E2.21997
G1 X110.669 Y103.763 E2.40765
G1 X110.262 Y103.763 E2.42315
G1 X110.262 Y98.726 E2.61495
G1 X109.855 Y98.699 E2.63048
G1 X109.855 Y103.927 E2.82955
G1 E.82955 F2400
G92 E0
G1 X109.855 Y103.927 F7200
G1 X108.588 Y94.258
G1 E2 F2400
;TYPE:Perimeter
;WIDTH:0.419999
G1 F2250
G1 X108.721 Y94.277 E2.00512
G1 X109.43 Y94.277 E2.03212
G1 X109.43 Y94.986 E2.05912
G1 X109.43 Y96.792 E2.12789
G1 X108.721 Y96.792 E2.15489
G1 X108.462 Y96.829 E2.16485
G1 X108.225 Y96.938 E2.17478
G1 X107.987 Y97.161 E2.1872
G1 X107.858 Y97.401 E2.19758
G1 X107.805 Y97.708 E2.20944
G1 X107.805 Y104.391 E2.46391
G1 X96.918 Y104.38 E2.87846
G1 X95.593 Y104.214 E2.92931
G1 X94.308 Y103.852 E2.98014
G1 X93.516 Y103.518 E3.01287
G1 X92.359 Y102.85 E3.06374
G1 X91.463 Y102.136 E3.10737
G1 X91.023 Y101.734 E3.13006
G1 X90.274 Y100.843 E3.17438
G1 X89.914 Y100.349 E3.19766
G1 X89.473 Y99.585 E3.23125
G1 X88.95 Y98.344 E3.28253
G1 X88.714 Y97.505 E3.31572
G1 X88.561 Y96.636 E3.34932
G1 X88.495 Y95.755 E3.38296
G1 X88.517 Y94.873 E3.41655
G1 X88.626 Y93.997 E3.45016
G1 X88.823 Y93.136 E3.48379
G1 X89.104 Y92.299 E3.51741
G1 X89.467 Y91.494 E3.55103
G1 X89.909 Y90.73 E3.58464
G1 X90.424 Y90.013 E3.61825
G1 X91.008 Y89.351 E3.65186
G1 X91.655 Y88.75 E3.68549
G1 X92.359 Y88.217 E3.71911
G1 X93.113 Y87.757 E3.75274
G1 X93.908 Y87.374 E3.78634
G1 X94.738 Y87.072 E3.81997
G1 X95.593 Y86.854 E3.85357
G1 X96.466 Y86.723 E3.88718
G1 X97.374 Y86.677 E3.9218
G1 X107.805 Y86.677 E4.31899
G1 X107.805 Y92.724 E4.54924
G1 X107.832 Y93.581 E4.58189
G1 X107.987 Y93.909 E4.5957
G1 X108.225 Y94.131 E4.60809
G1 X108.462 Y94.24 E4.61802
G1 X108.529 Y94.25 E4.6206
G1 X108.63 Y93.884 F7200
G1 F2250
G1 X108.721 Y93.911 E4.62421
G1 X109.797 Y93.911 E4.66518
G1 X109.797 Y94.986 E4.70611
G1 X109.797 Y97.158 E4.78881
G1 X108.721 Y97.158 E4.82978
G1 X108.424 Y97.246 E4.84158
G1 X108.235 Y97.452 E4.85223
G1 X108.172 Y97.708 E4.86227
G1 X108.172 Y104.758 E5.13072
G1 X96.895 Y104.746 E5.56012
G1 X95.52 Y104.574 E5.61288
G1 X94.187 Y104.199 E5.66561
G1 X93.352 Y103.847 E5.70011
G1 X92.153 Y103.154 E5.75284
G1 X91.234 Y102.423 E5.79755
G1 X90.754 Y101.984 E5.82232
G1 X89.993 Y101.078 E5.86737
G1 X89.604 Y100.544 E5.89253
G1 X89.144 Y99.748 E5.92754
G1 X88.603 Y98.465 E5.98056
G1 X88.356 Y97.587 E6.01529
G1 X88.197 Y96.682 E6.05028
G1 X88.128 Y95.765 E6.0853
G1 X88.151 Y94.845 E6.12034
G1 X88.265 Y93.933 E6.15534
G1 X88.47 Y93.037 E6.19034
G1 X88.763 Y92.165 E6.22537
G1 X89.141 Y91.327 E6.26038
G1 X89.6 Y90.531 E6.29537
G1 X90.137 Y89.784 E6.3304
G1 X90.746 Y89.095 E6.36541
G1 X91.42 Y88.469 E6.40044
G1 X92.152 Y87.914 E6.43542
G1 X92.937 Y87.435 E6.47044
G1 X93.765 Y87.036 E6.50544
G1 X94.629 Y86.721 E6.54046
G1 X95.52 Y86.495 E6.57546
G1 X96.43 Y86.358 E6.6105
G1 X97.365 Y86.311 E6.64615
G1 X108.172 Y86.311 E7.05765
G1 X108.172 Y93.361 E7.3261
G1 X108.235 Y93.617 E7.33614
G1 X108.424 Y93.823 E7.34679
G1 X108.573 Y93.867 E7.35271
G1 X108.721 Y93.545 F7200
;TYPE:External perimeter
G1 F1125
G1 X110.163 Y93.545 E7.40762
G1 X110.163 Y94.986 E7.46249
G1 X110.163 Y97.525 E7.55917
G1 X108.721 Y97.525 E7.61408
G1 X108.592 Y97.578 E7.61939
G1 X108.538 Y97.708 E7.62475
G1 X108.538 Y105.124 E7.90713
G1 X96.872 Y105.112 E8.35134
G1 X95.448 Y104.934 E8.40598
G1 X94.066 Y104.545 E8.46065
G1 X93.189 Y104.175 E8.49689
G1 X91.946 Y103.458 E8.55153
G1 X91.006 Y102.71 E8.59727
G1 X90.486 Y102.234 E8.62411
G1 X89.713 Y101.314 E8.66987
G1 X89.294 Y100.74 E8.69693
G1 X88.815 Y99.911 E8.73339
G1 X88.257 Y98.587 E8.7881
G1 X87.999 Y97.668 E8.82445
G1 X87.833 Y96.727 E8.86083
G1 X87.761 Y95.774 E8.89722
G1 X87.785 Y94.818 E8.93363
G1 X87.904 Y93.869 E8.97005
G1 X88.117 Y92.937 E9.00645
G1 X88.421 Y92.031 E9.04284
G1 X88.814 Y91.16 E9.07923
G1 X89.292 Y90.332 E9.11563
G1 X89.85 Y89.556 E9.15202
G1 X90.483 Y88.839 E9.18844
G1 X91.184 Y88.188 E9.22487
G1 X91.946 Y87.611 E9.26126
G1 X92.762 Y87.113 E9.29766
G1 X93.623 Y86.698 E9.33405
G1 X94.521 Y86.371 E9.37044
G1 X95.448 Y86.135 E9.40686
G1 X96.393 Y85.993 E9.44325
G1 X97.356 Y85.945 E9.47996
G1 X108.538 Y85.945 E9.90574
G1 X108.538 Y93.361 E10.18812
G1 X108.574 Y93.471 E10.19253
G1 X108.667 Y93.518 E10.1965
G1 X109.067 Y93.541 F7200
G1 E8.1965 F2400
G92 E0
G1 X96.265 Y94.369 F7200
G1 E2 F2400
;TYPE:Perimeter
G1 F900
G1 X96.45 Y94.013 E2.01528
G1 X96.801 Y93.566 E2.03692
G1 X97.231 Y93.2 E2.05842
G1 X97.718 Y92.93 E2.07962
G1 X98.265 Y92.755 E2.10149
G1 X98.8 Y92.692 E2.122
G1 X99.431 Y92.755 E2.14615
G1 X99.97 Y92.926 E2.16768
G1 X100.464 Y93.2 E2.18919
G1 X100.853 Y93.52 E2.20837
G1 X101.244 Y94.011 E2.23227
G1 X101.485 Y94.474 E2.25215
G1 X101.635 Y94.972 E2.27195
G1 X101.69 Y95.489 E2.29175
G1 X101.648 Y96.008 E2.31158
G1 X101.499 Y96.553 E2.33309
G1 X101.245 Y97.058 E2.35461
G1 X100.902 Y97.499 E2.37588
G1 X100.431 Y97.892 E2.39924
G1 X99.932 Y98.159 E2.42079
G1 X99.434 Y98.316 E2.44067
G1 X98.895 Y98.377 E2.46132
G1 X98.265 Y98.314 E2.48543
G1 X97.726 Y98.143 E2.50696
G1 X97.231 Y97.869 E2.5285
G1 X96.842 Y97.548 E2.5477
G1 X96.52 Y97.165 E2.56675
G1 X96.268 Y96.721 E2.58619
G1 X96.084 Y96.186 E2.60773
G1 X96.048 Y96.008 E2.61465
G1 X96.008 Y95.46 E2.63557
G1 X96.065 Y94.955 E2.65492
G1 X96.214 Y94.467 E2.67435
G1 X96.237 Y94.422 E2.67627
G1 X96.572 Y94.576 F7200
G1 F900
G1 X96.59 Y94.523 E2.6784
G1 X96.835 Y94.096 E2.69715
G1 X97.16 Y93.726 E2.7159
G1 X97.552 Y93.427 E2.73467
G1 X97.995 Y93.212 E2.75342
G1 X98.458 Y93.09 E2.77165
G1 X98.841 Y93.06 E2.78628
G1 X99.331 Y93.108 E2.80503
G1 X99.803 Y93.252 E2.82382
G1 X100.236 Y93.486 E2.84256
G1 X100.614 Y93.802 E2.86132
G1 X100.923 Y94.186 E2.88009
G1 X101.149 Y94.624 E2.89886
G1 X101.284 Y95.098 E2.91763
G1 X101.322 Y95.589 E2.93638
G1 X101.242 Y96.144 E2.95773
G1 X101.106 Y96.546 E2.97389
G1 X100.869 Y96.964 E2.99219
G1 X100.616 Y97.266 E3.00719
G1 X100.248 Y97.575 E3.02549
G1 X99.816 Y97.812 E3.04425
G1 X99.345 Y97.959 E3.06304
G1 X98.855 Y98.009 E3.08179
G1 X98.364 Y97.961 E3.10058
G1 X97.885 Y97.813 E3.11967
G1 X97.382 Y97.521 E3.14182
G1 X97.081 Y97.267 E3.15682
G1 X96.773 Y96.883 E3.17556
G1 X96.547 Y96.445 E3.19433
G1 X96.412 Y95.971 E3.2131
G1 X96.374 Y95.48 E3.23185
G1 X96.434 Y94.991 E3.25061
G1 X96.553 Y94.633 E3.26498
G1 X96.969 Y94.607 F7200
;TYPE:External perimeter
G1 F900
G1 X97.212 Y94.217 E3.28248
G1 X97.388 Y94.012 E3.29277
G1 X97.719 Y93.753 E3.30877
G1 X98.094 Y93.564 E3.32476
G1 X98.495 Y93.455 E3.34058
G1 X98.814 Y93.426 E3.35278
G1 X99.232 Y93.461 E3.36875
G1 X99.636 Y93.578 E3.38477
G1 X100.008 Y93.773 E3.40076
G1 X100.334 Y94.037 E3.41673
G1 X100.601 Y94.361 E3.43272
G1 X100.799 Y94.732 E3.44873
G1 X100.919 Y95.135 E3.46474
G1 X100.957 Y95.553 E3.48072
G1 X100.892 Y96.036 E3.49928
G1 X100.785 Y96.371 E3.51267
G1 X100.583 Y96.735 E3.52852
G1 X100.374 Y96.991 E3.5411
G1 X100.064 Y97.258 E3.55668
G1 X99.699 Y97.465 E3.57266
G1 X99.3 Y97.595 E3.58864
G1 X98.882 Y97.644 E3.60467
G1 X98.464 Y97.609 E3.62064
G1 X98.052 Y97.487 E3.637
G1 X97.61 Y97.234 E3.65639
G1 X97.362 Y97.032 E3.66857
G1 X97.095 Y96.708 E3.68456
G1 X96.897 Y96.337 E3.70057
G1 X96.777 Y95.935 E3.71654
G1 X96.739 Y95.516 E3.73256
G1 X96.823 Y94.971 E3.75356
G1 X96.911 Y94.698 E3.76448
G1 X96.937 Y94.658 E3.7663
G1 X97.148 Y94.318 F7200
G1 E1.7663 F2400
G92 E0
G1 X90.084 Y100.403 F7200
G1 E2 F2400
;TYPE:Solid infill
;WIDTH:0.425186
G1 F1500
G1 X91.507 Y101.821 E2.07758
G1 X92.514 Y102.623 E2.12729
G1 X93.26 Y103.053 E2.16054
G1 X89.788 Y99.581 E2.35015
G1 X89.719 Y99.462 E2.35546
G1 X89.373 Y98.641 E2.38986
G1 X94.27 Y103.538 E2.6573
G1 X94.399 Y103.592 E2.6627
G1 X95.027 Y103.769 E2.6879
G1 X89.092 Y97.834 E3.01202
G1 X88.982 Y97.444 E3.02767
G1 X88.93 Y97.146 E3.03935
G1 X95.738 Y103.955 E3.41118
G1 X96.339 Y104.03 E3.43457
G1 X88.827 Y96.519 E3.84479
G1 X88.785 Y95.951 E3.86678
G1 X96.939 Y104.105 E4.31209
G1 X97.465 Y104.106 E4.3324
G1 X88.778 Y95.418 E4.80684
G1 X88.791 Y94.906 E4.82662
G1 X97.991 Y104.106 E5.32905
G1 X98.517 Y104.107 E5.34936
G1 X88.848 Y94.438 E5.87741
G1 X88.913 Y93.977 E5.89539
G1 X99.043 Y104.107 E6.44861
G1 X99.569 Y104.108 E6.46892
G1 X89.01 Y93.549 E7.04557
G1 X89.115 Y93.129 E7.06229
G1 X100.095 Y104.108 E7.6619
G1 X100.621 Y104.109 E7.68221
G1 X89.247 Y92.735 E8.30337
G1 X89.384 Y92.347 E8.31926
G1 X101.147 Y104.109 E8.96164
G1 X101.673 Y104.11 E8.98195
G1 X89.547 Y91.984 E9.64418
G1 X89.711 Y91.622 E9.65953
G1 X102.199 Y104.11 E10.34153
G1 X102.725 Y104.111 E10.36184
G1 X89.903 Y91.289 E11.06208
G1 X90.095 Y90.956 E11.07692
G1 X96.093 Y96.953 E11.40446
G1 X95.962 Y96.714 E11.41498
G1 X95.787 Y96.123 E11.43878
G1 X90.309 Y90.644 E11.73797
G1 X90.528 Y90.338 E11.7525
G1 X95.732 Y95.542 E12.0367
G1 X95.779 Y95.064 E12.05525
G1 X90.761 Y90.046 E12.32929
G1 X91.008 Y89.767 E12.34368
G1 X95.876 Y94.635 E12.60953
G1 X95.957 Y94.368 E12.6203
G1 X96.019 Y94.253 E12.62535
G1 X91.259 Y89.493 E12.8853
G1 X91.532 Y89.24 E12.89967
G1 X96.203 Y93.911 E13.15476
G1 X96.281 Y93.765 E13.16115
G1 X96.418 Y93.6 E13.16943
G1 X91.804 Y88.987 E13.42138
G1 X92.101 Y88.758 E13.43586
G1 X96.661 Y93.318 E13.68489
G1 X96.948 Y93.08 E13.69929
G1 X92.4 Y88.531 E13.94769
G1 X92.715 Y88.322 E13.96229
G1 X97.261 Y92.868 E14.21056
G1 X97.6 Y92.681 E14.22551
G1 X93.041 Y88.122 E14.47449
G1 X93.378 Y87.934 E14.48939
G1 X97.992 Y92.548 E14.74137
G1 X98.203 Y92.487 E14.74985
G1 X98.427 Y92.457 E14.75858
G1 X93.733 Y87.763 E15.01493
G1 X94.094 Y87.599 E15.03024
G1 X98.929 Y92.434 E15.29429
G1 X99.275 Y92.45 E15.30767
G1 X99.514 Y92.493 E15.31705
G1 X94.479 Y87.458 E15.59202
G1 X94.819 Y87.335 E15.60598
G1 X94.868 Y87.322 E15.60794
G1 X107.538 Y99.991 E16.29985
G1 X107.538 Y99.467 E16.32009
G1 X95.287 Y87.216 E16.98914
G1 X95.711 Y87.114 E17.00598
G1 X107.539 Y98.942 E17.65193
G1 X107.54 Y98.418 E17.67217
G1 X96.168 Y87.045 E18.29325
G1 X96.637 Y86.989 E18.31149
G1 X107.541 Y97.893 E18.90698
G1 X107.542 Y97.541 E18.92057
G1 X107.576 Y97.402 E18.9261
G1 X97.138 Y86.964 E19.49614
G1 X97.651 Y86.952 E19.51596
G1 X107.741 Y97.043 E20.06702
G1 X107.881 Y96.863 E20.07583
G1 X107.995 Y96.771 E20.08149
G1 X98.176 Y86.952 E20.61773
G1 X98.702 Y86.952 E20.63804
G1 X108.336 Y96.587 E21.1642
G1 X108.384 Y96.565 E21.16624
G1 X108.792 Y96.517 E21.1821
G1 X99.227 Y86.952 E21.70447
G1 X99.753 Y86.952 E21.72478
G1 X109.155 Y96.355 E22.23827
G1 X109.155 Y95.83 E22.25854
G1 X100.278 Y86.952 E22.74336
G1 X100.803 Y86.952 E22.76363
G1 X109.32 Y95.469 E23.22876
G1 X109.32 Y94.944 F7200
G1 F1500
G1 X108.764 Y94.387 E23.25915
G1 X107.695 Y93.319 F7200
G1 F1500
G1 X101.329 Y86.952 E23.60684
G1 X101.854 Y86.952 E23.62711
G1 X107.53 Y92.628 E23.93709
G1 X107.53 Y92.103 E23.95736
G1 X102.38 Y86.952 E24.23864
G1 X102.905 Y86.952 E24.25891
G1 X107.53 Y91.577 E24.51149
G1 X107.53 Y91.052 E24.53176
G1 X103.431 Y86.952 E24.75564
G1 X103.956 Y86.952 E24.77591
G1 X107.53 Y90.527 E24.97112
G1 X107.53 Y90.001 E24.99143
G1 X104.481 Y86.952 E25.15794
G1 X105.007 Y86.952 E25.17825
G1 X107.53 Y89.476 E25.31606
G1 X107.53 Y88.95 E25.33637
G1 X105.532 Y86.952 E25.44549
