; generated by PrusaSlicer 2.2.0 on 2021-07-25 at 08:51:38 UTC

; 

; external perimeters extrusion width = 0.45mm
; perimeters extrusion width = 0.45mm
; infill extrusion width = 0.45mm
; solid infill extrusion width = 0.45mm
; top infill extrusion width = 0.40mm
; support material extrusion width = 0.35mm
; first layer extrusion width = 0.42mm

M107
M190 S60 ; set bed temperature and wait for it to be reached
M104 S215 ; set temperature
G28 ; home all axes
G1 Z5 F5000 ; lift nozzle
M109 S215 ; set temperature and wait for it to be reached
G21 ; set units to millimeters
G90 ; use absolute coordinates
M82 ; use absolute distances for extrusion
G92 E0
; Filament gcode
G1 Z0.250 F7200.000
G1 E-2.00000 F2400.00000
G92 E0
G1 X61.488 Y35.954 F7200.000
G1 E2.00000 F2400.00000
G1 F3600.000
G1 X62.374 Y34.399 E2.06815
G1 X63.369 Y33.013 E2.13313
G1 X64.492 Y31.745 E2.19762
G1 X65.818 Y30.531 E2.26610
G1 X67.598 Y29.252 E2.34954
G1 X69.165 Y28.388 E2.41769
G1 X70.689 Y27.743 E2.48070
G1 X72.159 Y27.281 E2.53936
G1 X73.266 Y27.028 E2.58259
G1 X74.815 Y26.802 E2.64221
G1 X76.398 Y26.722 E2.70256
G1 X86.750 Y26.722 E3.09676
G1 X87.696 Y26.790 E3.13285
G1 X97.245 Y28.220 E3.50052
G1 X98.647 Y28.599 E3.55582
G1 X99.993 Y29.310 E3.61379
G1 X101.141 Y30.300 E3.67152
G1 X102.042 Y31.528 E3.72949
G1 X102.643 Y32.926 E3.78746
G1 X102.857 Y33.882 E3.82477
G1 X102.930 Y34.853 E3.86184
G1 X102.960 Y78.231 E5.51357
G1 X102.770 Y79.793 E5.57348
G1 X102.480 Y80.702 E5.60982
G1 X102.061 Y81.567 E5.64640
G1 X101.523 Y82.363 E5.68298
G1 X100.877 Y83.074 E5.71956
G1 X100.142 Y83.683 E5.75590
G1 X99.323 Y84.184 E5.79249
G1 X98.440 Y84.564 E5.82907
G1 X97.513 Y84.814 E5.86565
G1 X87.012 Y86.185 E6.26890
G1 X75.750 Y86.173 E6.69773
G1 X74.019 Y86.008 E6.76393
G1 X72.414 Y85.689 E6.82623
G1 X70.112 Y84.931 E6.91853
G1 X68.338 Y84.076 E6.99351
G1 X66.371 Y82.795 E7.08288
G1 X64.609 Y81.254 E7.17202
G1 X63.309 Y79.784 E7.24674
G1 X61.990 Y77.835 E7.33637
G1 X60.953 Y75.707 E7.42648
G1 X60.341 Y73.896 E7.49926
G1 X59.887 Y71.659 E7.58620
G1 X59.744 Y69.740 E7.65947
G1 X59.715 Y43.116 E8.67325
G1 X59.839 Y41.400 E8.73875
G1 X60.153 Y39.639 E8.80686
G1 X60.635 Y37.976 E8.87282
G1 X61.464 Y36.010 E8.95407
G1 X61.802 Y36.152 F7200.000
G1 F3600.000
G1 X62.684 Y34.594 E9.02226
G1 X63.662 Y33.233 E9.08604
G1 X64.823 Y31.932 E9.15244
G1 X66.441 Y30.502 E9.23468
G1 X67.881 Y29.507 E9.30131
G1 X69.346 Y28.708 E9.36486
G1 X70.820 Y28.085 E9.42580
G1 X72.264 Y27.632 E9.48342
G1 X73.333 Y27.388 E9.52517
G1 X74.861 Y27.165 E9.58397
G1 X76.404 Y27.089 E9.64278
G1 X86.750 Y27.089 E10.03675
G1 X87.645 Y27.153 E10.07091
G1 X97.183 Y28.581 E10.43816
G1 X98.476 Y28.926 E10.48910
G1 X99.767 Y29.599 E10.54452
G1 X100.871 Y30.547 E10.59994
G1 X101.727 Y31.716 E10.65513
G1 X102.299 Y33.054 E10.71055
G1 X102.497 Y33.948 E10.74541
G1 X102.564 Y34.855 E10.78004
G1 X102.594 Y78.230 E12.43167
G1 X102.411 Y79.718 E12.48874
G1 X102.133 Y80.584 E12.52336
G1 X101.734 Y81.401 E12.55799
G1 X101.222 Y82.153 E12.59261
G1 X100.604 Y82.828 E12.62747
G1 X99.896 Y83.408 E12.66233
G1 X99.117 Y83.878 E12.69696
G1 X98.280 Y84.232 E12.73158
G1 X97.400 Y84.463 E12.76621
G1 X86.994 Y85.819 E13.16581
G1 X75.760 Y85.806 E13.59355
G1 X74.068 Y85.645 E13.65829
G1 X72.492 Y85.331 E13.71947
G1 X70.246 Y84.590 E13.80953
G1 X68.516 Y83.756 E13.88266
G1 X66.589 Y82.500 E13.97025
G1 X64.861 Y80.987 E14.05770
G1 X63.599 Y79.560 E14.13026
G1 X62.305 Y77.647 E14.21819
G1 X61.291 Y75.565 E14.30636
G1 X60.690 Y73.783 E14.37796
G1 X60.250 Y71.605 E14.46258
G1 X60.110 Y69.736 E14.53394
G1 X60.081 Y43.118 E15.54749
G1 X60.202 Y41.448 E15.61128
G1 X60.512 Y39.713 E15.67838
G1 X60.980 Y38.098 E15.74240
G1 X61.778 Y36.207 E15.82055
G1 E13.82055 F2400.00000
G92 E0
G1 X87.435 Y60.707 F7200.000
G1 E2.00000 F2400.00000
G1 F3600.000
G1 X87.435 Y66.548 E2.22242
G1 X87.460 Y66.548 E2.22336
G1 X87.460 Y63.505 E2.33922
G1 X88.168 Y63.505 E2.36618
G1 X88.168 Y60.872 E2.46645
G1 X88.900 Y60.872 E2.49435
G1 X88.900 Y63.505 E2.59463
G1 X89.633 Y63.505 E2.62253
G1 X89.633 Y60.872 E2.72281
G1 X90.366 Y60.872 E2.75071
G1 X90.366 Y63.670 E2.85726
G1 E0.85726 F2400.00000
G92 E0
G1 X88.741 Y66.528 F7200.000
G1 E2.00000 F2400.00000
G1 F3600.000
G1 X88.741 Y63.842 E2.08273
G1 X88.434 Y63.842 E2.09218
G1 X88.434 Y66.410 E2.17127
G1 X88.165 Y66.578 E2.18104
G1 X88.127 Y66.578 E2.18221
G1 X88.127 Y63.842 E2.26648
G1 X87.820 Y63.842 E2.27594
G1 X87.820 Y66.716 E2.36446
G1 E0.36446 F2400.00000
G92 E0
G1 X90.584 Y75.209 F7200.000
G1 E2.00000 F2400.00000
G1 F3600.000
G1 X90.584 Y63.842 E2.35011
G1 X90.276 Y63.842 E2.35957
G1 X90.276 Y75.070 E2.70543
G1 X89.969 Y75.070 E2.71488
G1 X89.969 Y63.842 E3.06074
G1 X89.662 Y63.842 E3.07020
G1 X89.662 Y75.070 E3.41605
G1 X89.355 Y75.070 E3.42551
G1 X89.355 Y63.842 E3.77137
G1 X89.048 Y63.842 E3.78082
G1 X89.048 Y75.070 E4.12668
G1 X88.741 Y75.070 E4.13614
G1 X88.741 Y72.543 E4.21400
G1 X88.612 Y72.614 E4.21854
G1 X88.434 Y72.503 E4.22501
G1 X88.434 Y75.070 E4.30409
G1 X88.127 Y75.070 E4.31355
G1 X88.127 Y72.335 E4.39782
G1 X87.820 Y72.335 E4.40727
G1 X87.820 Y75.209 E4.49579
G1 E2.49579 F2400.00000
G92 E0
G1 X87.435 Y72.199 F7200.000
G1 E2.00000 F2400.00000
G1 F3600.000
G1 X87.435 Y78.041 E2.22242
G1 X88.168 Y78.041 E2.25032
G1 X88.168 Y75.407 E2.35059
G1 X88.900 Y75.407 E2.37849
G1 X88.900 Y78.041 E2.47877
G1 X89.633 Y78.041 E2.50667
G1 X89.633 Y75.407 E2.60695
G1 X90.366 Y75.407 E2.63485
G1 X90.366 Y78.041 E2.73512
G1 X91.098 Y78.041 E2.76302
G1 X91.098 Y60.872 E3.41677
G1 X91.831 Y60.872 E3.44467
G1 X91.831 Y78.041 E4.09842
G1 X92.564 Y78.041 E4.12632
G1 X92.564 Y60.872 E4.78007
G1 X93.296 Y60.872 E4.80797
G1 X93.296 Y78.041 E5.46172
G1 X94.029 Y78.041 E5.48962
G1 X94.029 Y60.872 E6.14337
G1 X94.762 Y60.872 E6.17127
G1 X94.762 Y78.041 E6.82502
G1 X95.495 Y78.041 E6.85292
G1 X95.495 Y60.872 E7.50667
G1 X96.227 Y60.872 E7.53457
G1 X96.227 Y78.205 E8.19460
G1 E6.19460 F2400.00000
G92 E0
G1 X79.103 Y70.941 F7200.000
G1 E2.00000 F2400.00000
G1 F900.000
G1 X78.761 Y71.393 E2.02159
G1 X78.336 Y71.768 E2.04318
G1 X77.845 Y72.052 E2.06477
G1 X77.307 Y72.232 E2.08636
G1 X76.745 Y72.303 E2.10796
G1 X76.179 Y72.260 E2.12955
G1 X75.633 Y72.107 E2.15114
G1 X75.129 Y71.848 E2.17273
G1 X74.685 Y71.495 E2.19432
G1 X74.321 Y71.060 E2.21591
G1 X74.050 Y70.562 E2.23750
G1 X73.883 Y70.020 E2.25909
G1 X73.826 Y69.456 E2.28069
G1 X73.883 Y68.892 E2.30228
G1 X74.046 Y68.361 E2.32342
G1 X74.251 Y67.962 E2.34051
G1 X74.586 Y67.519 E2.36165
G1 X75.011 Y67.144 E2.38324
G1 X75.502 Y66.861 E2.40483
G1 X76.040 Y66.680 E2.42642
G1 X76.603 Y66.610 E2.44802
G1 X77.168 Y66.652 E2.46961
G1 X77.714 Y66.806 E2.49120
G1 X78.219 Y67.064 E2.51279
G1 X78.662 Y67.418 E2.53438
G1 X79.026 Y67.852 E2.55597
G1 X79.297 Y68.350 E2.57756
G1 X79.465 Y68.892 E2.59915
G1 X79.520 Y69.444 E2.62029
G1 X79.486 Y69.892 E2.63739
G1 X79.349 Y70.430 E2.65853
G1 X79.129 Y70.887 E2.67784
G1 X78.789 Y70.749 F7200.000
G1 F900.000
G1 X78.491 Y71.143 E2.69663
G1 X78.121 Y71.469 E2.71543
G1 X77.693 Y71.716 E2.73423
G1 X77.225 Y71.873 E2.75303
G1 X76.735 Y71.935 E2.77183
G1 X76.243 Y71.898 E2.79063
G1 X75.768 Y71.764 E2.80943
G1 X75.328 Y71.539 E2.82823
G1 X74.942 Y71.231 E2.84703
G1 X74.625 Y70.853 E2.86583
G1 X74.389 Y70.419 E2.88463
G1 X74.243 Y69.947 E2.90343
G1 X74.194 Y69.456 E2.92223
G1 X74.243 Y68.965 E2.94103
G1 X74.387 Y68.500 E2.95955
G1 X74.562 Y68.158 E2.97421
G1 X74.856 Y67.770 E2.99273
G1 X75.226 Y67.443 E3.01153
G1 X75.654 Y67.196 E3.03033
G1 X76.122 Y67.039 E3.04913
G1 X76.612 Y66.978 E3.06793
G1 X77.104 Y67.015 E3.08673
G1 X77.579 Y67.148 E3.10553
G1 X78.019 Y67.374 E3.12432
G1 X78.405 Y67.681 E3.14312
G1 X78.722 Y68.060 E3.16192
G1 X78.958 Y68.493 E3.18072
G1 X79.104 Y68.965 E3.19952
G1 X79.152 Y69.449 E3.21805
G1 X79.123 Y69.833 E3.23270
G1 X79.003 Y70.304 E3.25122
G1 X78.815 Y70.695 E3.26774
G1 X78.475 Y70.557 F7200.000
G1 F900.000
G1 X78.221 Y70.892 E3.28375
G1 X77.906 Y71.170 E3.29975
G1 X77.542 Y71.380 E3.31576
G1 X77.143 Y71.514 E3.33177
G1 X76.726 Y71.567 E3.34778
G1 X76.307 Y71.535 E3.36378
G1 X75.902 Y71.421 E3.37979
G1 X75.528 Y71.230 E3.39580
G1 X75.200 Y70.967 E3.41181
G1 X74.929 Y70.645 E3.42782
G1 X74.728 Y70.276 E3.44382
G1 X74.604 Y69.874 E3.45983
G1 X74.563 Y69.456 E3.47584
G1 X74.604 Y69.038 E3.49185
G1 X74.728 Y68.639 E3.50775
G1 X74.874 Y68.353 E3.51997
G1 X75.126 Y68.020 E3.53587
G1 X75.441 Y67.742 E3.55188
G1 X75.805 Y67.532 E3.56789
G1 X76.204 Y67.398 E3.58390
G1 X76.621 Y67.346 E3.59990
G1 X77.040 Y67.377 E3.61591
G1 X77.445 Y67.491 E3.63192
G1 X77.819 Y67.683 E3.64793
G1 X78.148 Y67.945 E3.66394
G1 X78.418 Y68.267 E3.67994
G1 X78.619 Y68.636 E3.69595
G1 X78.743 Y69.038 E3.71196
G1 X78.784 Y69.454 E3.72787
G1 X78.760 Y69.773 E3.74008
G1 X78.657 Y70.178 E3.75599
G1 X78.501 Y70.503 E3.76971
G1 X78.666 Y70.908 F7200.000
G1 E1.76971 F2400.00000
G92 E0
G1 X85.631 Y70.813 F7200.000
G1 E2.00000 F2400.00000
G1 F2250.000
G1 X85.631 Y78.312 E2.28554
G1 X76.033 Y78.301 E2.65102
G1 X75.142 Y78.212 E2.68510
G1 X74.276 Y78.035 E2.71877
G1 X73.434 Y77.775 E2.75233
G1 X73.044 Y77.622 E2.76827
G1 X72.249 Y77.240 E2.80184
G1 X71.484 Y76.774 E2.83595
G1 X70.771 Y76.232 E2.87006
G1 X70.125 Y75.632 E2.90362
G1 X69.557 Y74.987 E2.93636
G1 X69.034 Y74.261 E2.97043
G1 X68.587 Y73.486 E3.00449
G1 X68.406 Y73.110 E3.02041
G1 X68.079 Y72.277 E3.05448
G1 X67.840 Y71.427 E3.08810
G1 X67.686 Y70.557 E3.12171
G1 X67.620 Y69.677 E3.15533
G1 X67.642 Y68.794 E3.18895
G1 X67.752 Y67.918 E3.22257
G1 X67.949 Y67.058 E3.25618
G1 X68.230 Y66.221 E3.28980
G1 X68.593 Y65.416 E3.32342
G1 X69.034 Y64.651 E3.35704
G1 X69.550 Y63.935 E3.39066
G1 X70.134 Y63.273 E3.42427
G1 X70.781 Y62.672 E3.45789
G1 X71.485 Y62.139 E3.49151
G1 X72.238 Y61.679 E3.52513
G1 X73.034 Y61.296 E3.55875
G1 X73.863 Y60.994 E3.59236
G1 X74.719 Y60.776 E3.62598
G1 X75.592 Y60.644 E3.65960
G1 X76.500 Y60.599 E3.69421
G1 X85.631 Y60.599 E4.04191
G1 X85.631 Y68.099 E4.32749
G1 X87.256 Y68.099 E4.38936
G1 X87.256 Y70.813 E4.49273
G1 X85.691 Y70.813 E4.55232
G1 X85.997 Y71.180 F7200.000
G1 F2250.000
G1 X85.997 Y78.679 E4.83788
G1 X76.014 Y78.668 E5.21801
G1 X75.092 Y78.575 E5.25331
G1 X74.647 Y78.497 E5.27052
G1 X74.180 Y78.389 E5.28874
G1 X73.313 Y78.121 E5.32333
G1 X72.897 Y77.958 E5.34031
G1 X72.079 Y77.564 E5.37490
G1 X71.278 Y77.077 E5.41060
G1 X70.532 Y76.509 E5.44629
G1 X69.866 Y75.891 E5.48088
G1 X69.267 Y75.212 E5.51536
G1 X68.726 Y74.460 E5.55064
G1 X68.263 Y73.658 E5.58593
G1 X68.070 Y73.256 E5.60289
G1 X67.731 Y72.394 E5.63817
G1 X67.482 Y71.508 E5.67318
G1 X67.322 Y70.603 E5.70819
G1 X67.254 Y69.686 E5.74320
G1 X67.277 Y68.767 E5.77821
G1 X67.391 Y67.855 E5.81322
G1 X67.595 Y66.958 E5.84824
G1 X67.888 Y66.087 E5.88325
G1 X68.266 Y65.249 E5.91826
G1 X68.726 Y64.452 E5.95327
G1 X69.263 Y63.706 E5.98828
G1 X69.871 Y63.016 E6.02329
G1 X70.545 Y62.391 E6.05830
G1 X71.278 Y61.836 E6.09331
G1 X72.063 Y61.356 E6.12832
G1 X72.891 Y60.958 E6.16333
G1 X73.755 Y60.643 E6.19834
G1 X74.646 Y60.416 E6.23335
G1 X75.555 Y60.279 E6.26836
G1 X76.490 Y60.233 E6.30401
G1 X85.997 Y60.233 E6.66601
G1 X85.997 Y67.733 E6.95159
G1 X87.622 Y67.733 E7.01347
G1 X87.622 Y71.180 E7.14473
G1 X86.057 Y71.180 E7.20432
G1 X86.364 Y71.546 F7200.000
G1 F1125.000
G1 X86.364 Y79.046 E7.48989
G1 X75.996 Y79.034 E7.88468
G1 X75.042 Y78.938 E7.92119
G1 X74.574 Y78.856 E7.93928
G1 X74.085 Y78.743 E7.95838
G1 X73.191 Y78.467 E7.99400
G1 X72.751 Y78.294 E8.01201
G1 X71.908 Y77.889 E8.04763
G1 X71.473 Y77.639 E8.06673
G1 X71.071 Y77.380 E8.08493
G1 X70.683 Y77.101 E8.10312
G1 X70.292 Y76.787 E8.12222
G1 X69.607 Y76.150 E8.15784
G1 X68.978 Y75.437 E8.19405
G1 X68.418 Y74.659 E8.23055
G1 X67.939 Y73.829 E8.26705
G1 X67.734 Y73.403 E8.28506
G1 X67.383 Y72.510 E8.32156
G1 X67.124 Y71.590 E8.35797
G1 X66.958 Y70.649 E8.39437
G1 X66.887 Y69.695 E8.43077
G1 X66.911 Y68.740 E8.46717
G1 X67.030 Y67.791 E8.50358
G1 X67.242 Y66.859 E8.53998
G1 X67.547 Y65.953 E8.57638
G1 X67.940 Y65.081 E8.61278
G1 X68.418 Y64.253 E8.64919
G1 X68.976 Y63.477 E8.68559
G1 X69.609 Y62.760 E8.72199
G1 X70.309 Y62.110 E8.75839
G1 X71.072 Y61.533 E8.79480
G1 X71.887 Y61.034 E8.83120
G1 X72.749 Y60.620 E8.86760
G1 X73.647 Y60.293 E8.90401
G1 X74.573 Y60.057 E8.94041
G1 X75.519 Y59.914 E8.97681
G1 X76.481 Y59.866 E9.01351
G1 X86.364 Y59.866 E9.38980
G1 X86.364 Y67.366 E9.67538
G1 X87.989 Y67.366 E9.73726
G1 X87.989 Y71.546 E9.89642
G1 X86.424 Y71.546 E9.95601
G1 X85.995 Y71.702 F7200.000
G1 X87.146 Y70.375
G1 F1500.000
G1 X77.645 Y60.874 E10.47065
G1 X77.124 Y60.874 E10.49061
G1 X86.789 Y70.539 E11.01413
G1 X86.268 Y70.539 E11.03409
G1 X76.603 Y60.874 E11.55761
G1 X76.102 Y60.894 E11.57681
G1 X85.747 Y70.539 E12.09923
G1 X85.356 Y70.539 E12.11418
G1 X85.356 Y70.669 E12.11919
G1 X75.606 Y60.920 E12.64729
G1 X75.154 Y60.988 E12.66483
G1 X85.356 Y71.191 E13.21746
G1 X85.356 Y71.712 E13.23742
G1 X74.707 Y61.062 E13.81426
G1 X74.291 Y61.168 E13.83067
G1 X85.356 Y72.233 E14.43001
G1 X85.356 Y72.754 E14.44997
G1 X73.881 Y61.279 E15.07150
G1 X73.499 Y61.418 E15.08707
G1 X85.356 Y73.275 E15.72930
G1 X85.356 Y73.796 E15.74926
G1 X73.119 Y61.559 E16.41209
G1 X72.767 Y61.729 E16.42704
G1 X77.498 Y66.459 E16.68329
G1 X77.216 Y66.380 E16.69451
G1 X76.872 Y66.354 E16.70773
G1 X72.416 Y61.898 E16.94910
G1 X72.089 Y62.092 E16.96367
G1 X76.360 Y66.363 E17.19502
G1 X75.909 Y66.434 E17.21248
G1 X71.765 Y62.290 E17.43696
G1 X71.458 Y62.504 E17.45130
G1 X75.519 Y66.565 E17.67128
G1 X75.389 Y66.609 E17.67655
G1 X75.169 Y66.736 E17.68628
G1 X71.162 Y62.728 E17.90334
G1 X70.873 Y62.961 E17.91754
G1 X74.841 Y66.929 E18.13243
G1 X74.564 Y67.173 E18.14657
G1 X70.603 Y63.212 E18.36111
G1 X70.333 Y63.463 E18.37523
G1 X74.305 Y67.435 E18.59041
G1 X74.081 Y67.732 E18.60465
G1 X70.088 Y63.740 E18.82091
G1 X69.844 Y64.016 E18.83505
G1 X73.890 Y68.063 E19.05424
G1 X73.791 Y68.257 E19.06261
G1 X73.737 Y68.431 E19.06956
G1 X69.617 Y64.311 E19.29272
G1 X69.399 Y64.614 E19.30702
G1 X73.614 Y68.829 E19.53533
G1 X73.566 Y69.302 E19.55352
G1 X69.192 Y64.928 E19.79042
G1 X69.001 Y65.258 E19.80503
G1 X73.589 Y69.846 E20.05353
G1 X73.612 Y70.075 E20.06235
G1 X73.753 Y70.531 E20.08061
G1 X68.814 Y65.593 E20.34808
G1 X68.652 Y65.952 E20.36317
G1 X80.733 Y78.032 E21.01750
G1 X81.254 Y78.033 E21.03748
G1 X75.606 Y72.385 E21.34341
G1 X76.131 Y72.532 E21.36429
G1 X76.287 Y72.544 E21.37027
G1 X81.776 Y78.033 E21.66759
G1 X82.298 Y78.034 E21.68757
G1 X76.833 Y72.569 E21.98360
G1 X77.296 Y72.511 E22.00147
G1 X82.820 Y78.034 E22.30067
G1 X83.341 Y78.035 E22.32066
G1 X77.697 Y72.391 E22.62637
G1 X77.958 Y72.303 E22.63691
G1 X78.068 Y72.240 E22.64175
G1 X83.863 Y78.036 E22.95566
G1 X84.385 Y78.036 E22.97564
G1 X78.398 Y72.049 E23.29991
G1 X78.497 Y71.992 E23.30429
G1 X78.691 Y71.821 E23.31420
G1 X84.906 Y78.037 E23.65087
G1 X85.356 Y78.037 E23.66809
G1 X85.356 Y77.965 E23.67085
G1 X78.967 Y71.576 E24.01693
G1 X79.192 Y71.280 E24.03117
G1 X85.356 Y77.444 E24.36509
G1 X85.356 Y76.923 E24.38505
G1 X79.397 Y70.964 E24.70782
G1 X79.567 Y70.612 E24.72277
G1 X85.356 Y76.402 E25.03637
G1 X85.356 Y75.881 E25.05633
G1 X79.688 Y70.213 E25.36334
G1 X79.759 Y69.937 E25.37426
G1 X79.771 Y69.774 E25.38050
G1 X85.356 Y75.360 E25.68304
G1 X85.356 Y74.839 E25.70300
G1 X79.778 Y69.260 E26.00516
G1 X79.735 Y68.837 E26.02144
G1 X79.673 Y68.634 E26.02959
G1 X85.521 Y74.482 E26.34638
G1 E24.34638 F2400.00000
G92 E0
G1 X87.146 Y68.811 F7200.000
G1 E2.00000 F2400.00000
G1 F1500.000
G1 X86.708 Y68.374 E2.02371
G1 X86.187 Y68.374 E2.04367
G1 X86.981 Y69.168 E2.08668
G1 X86.981 Y69.689 E2.10664
G1 X78.166 Y60.874 E2.58412
G1 X78.687 Y60.874 E2.60408
G1 X85.356 Y67.543 E2.96532
G1 X85.356 Y67.022 E2.98528
G1 X79.208 Y60.874 E3.31828
G1 X79.729 Y60.874 E3.33824
G1 X85.356 Y66.500 E3.64302
G1 X85.356 Y65.979 E3.66298
G1 X80.251 Y60.874 E3.93953
G1 X80.772 Y60.874 E3.95949
G1 X85.356 Y65.458 E4.20781
G1 X85.356 Y64.937 E4.22777
G1 X81.293 Y60.874 E4.44787
G1 X81.814 Y60.874 E4.46783
G1 X85.356 Y64.416 E4.65969
G1 X85.356 Y63.895 E4.67965
G1 X82.335 Y60.874 E4.84329
G1 X82.856 Y60.874 E4.86325
G1 X85.356 Y63.374 E4.99867
