; generated by PrusaSlicer 2.2.0 on 2021-09-26 at 08:28:45 UTC

; 

; external perimeters extrusion width = 0.45mm
; perimeters extrusion width = 0.45mm
; infill extrusion width = 0.45mm
; solid infill extrusion width = 0.45mm
; top infill extrusion width = 0.40mm
; first layer extrusion width = 0.42mm

M107
M190 S60 ; set bed temperature and wait for it to be reached
M104 S215 ; set temperature
G28 ; home all axes
G1 Z5 F5000 ; lift nozzle
M109 S215 ; set temperature and wait for it to be reached
G21 ; set units to millimeters
G90 ; use absolute coordinates
M82 ; use absolute distances for extrusion
G92 E0
; Filament gcode
G1 Z0.350 F7200.000
G1 E-2.00000 F2400.00000
G92 E0
G1 X82.256 Y35.943 F7200.000
G1 E2.00000 F2400.00000
G1 F3600.000
G1 X83.617 Y35.366 E2.07419
G1 X85.161 Y35.052 E2.15323
G1 X138.831 Y30.285 E4.85731
G1 X163.711 Y30.269 E6.10597
G1 X164.641 Y30.335 E6.15275
G1 X165.673 Y30.546 E6.20561
G1 X166.495 Y30.826 E6.24919
G1 X167.427 Y31.273 E6.30106
G1 X168.171 Y31.757 E6.34560
G1 X168.973 Y32.432 E6.39824
G1 X169.544 Y33.052 E6.44054
G1 X170.134 Y33.864 E6.49090
G1 X171.518 Y36.605 E6.64497
G1 X172.448 Y39.332 E6.78960
G1 X173.009 Y42.166 E6.93455
G1 X173.185 Y45.195 E7.08684
G1 X172.888 Y49.674 E7.31214
G1 X172.294 Y52.880 E7.47575
G1 X171.291 Y55.953 E7.63796
G1 X165.019 Y71.874 E8.49676
G1 X164.483 Y72.788 E8.54994
G1 X163.805 Y73.610 E8.60343
G1 X163.009 Y74.311 E8.65661
G1 X162.108 Y74.880 E8.71011
G1 X160.816 Y75.394 E8.77989
G1 X133.199 Y83.037 E10.21798
G1 X132.043 Y83.145 E10.27627
G1 X116.757 Y83.141 E11.04338
G1 X115.244 Y82.911 E11.12018
G1 X87.855 Y75.292 E12.54691
G1 X86.691 Y74.770 E12.61095
G1 X85.652 Y74.040 E12.67467
G1 X84.770 Y73.127 E12.73839
G1 X84.076 Y72.064 E12.80211
G1 X78.437 Y57.336 E13.59353
G1 X77.689 Y55.085 E13.71260
G1 X77.015 Y51.591 E13.89118
G1 X76.823 Y48.391 E14.05205
G1 X76.824 Y47.530 E14.09526
G1 X77.025 Y45.212 E14.21202
G1 X77.453 Y43.165 E14.31701
G1 X78.244 Y40.880 E14.43833
G1 X79.220 Y38.908 E14.54878
G1 X79.995 Y37.793 E14.61693
G1 X80.950 Y36.835 E14.68480
G1 X82.207 Y35.977 E14.76118
G1 X82.402 Y36.262 F7200.000
G1 F3600.000
G1 X83.732 Y35.692 E14.83379
G1 X85.202 Y35.395 E14.90903
G1 X138.858 Y30.629 E17.61242
G1 X163.711 Y30.614 E18.85971
G1 X164.598 Y30.677 E18.90433
G1 X165.593 Y30.882 E18.95533
G1 X166.376 Y31.150 E18.99684
G1 X167.275 Y31.584 E19.04695
G1 X167.983 Y32.047 E19.08939
G1 X168.754 Y32.699 E19.14007
G1 X169.294 Y33.292 E19.18033
G1 X169.863 Y34.082 E19.22917
G1 X171.204 Y36.749 E19.37898
G1 X172.118 Y39.433 E19.52128
G1 X172.668 Y42.214 E19.66359
G1 X172.840 Y45.215 E19.81441
G1 X172.548 Y49.614 E20.03568
G1 X171.959 Y52.795 E20.19801
G1 X170.972 Y55.820 E20.35772
G1 X164.717 Y71.708 E21.21463
G1 X164.206 Y72.583 E21.26548
G1 X163.558 Y73.370 E21.31665
G1 X162.792 Y74.043 E21.36781
G1 X161.928 Y74.584 E21.41897
G1 X160.721 Y75.063 E21.48413
G1 X133.134 Y82.698 E22.92067
G1 X132.039 Y82.800 E22.97588
G1 X116.776 Y82.797 E23.74186
G1 X115.333 Y82.578 E23.81509
G1 X87.975 Y74.969 E25.24022
G1 X86.869 Y74.474 E25.30103
G1 X85.877 Y73.778 E25.36184
G1 X85.035 Y72.906 E25.42264
G1 X84.372 Y71.885 E25.48376
G1 X78.691 Y57.021 E26.28235
G1 X77.879 Y54.470 E26.41669
G1 X77.313 Y51.079 E26.58925
G1 X77.155 Y47.982 E26.74488
G1 X77.292 Y45.754 E26.85687
G1 X77.743 Y43.414 E26.97651
G1 X78.377 Y41.486 E27.07836
G1 X79.441 Y39.222 E27.20388
G1 X80.166 Y38.132 E27.26958
G1 X81.123 Y37.139 E27.33878
G1 X82.352 Y36.296 E27.41362
G1 E25.41362 F2400.00000
G92 E0
G1 X157.900 Y67.856 F7200.000
G1 E2.00000 F2400.00000
G1 F2250.000
G1 X130.900 Y67.856 E3.35502
G1 X130.900 Y69.804 E3.45278
G1 X130.746 Y69.845 E3.46077
G1 X130.639 Y69.656 E3.47167
G1 X118.361 Y69.656 E4.08782
G1 X118.254 Y69.845 E4.09872
G1 X118.100 Y69.804 E4.10671
G1 X118.100 Y67.856 E4.20447
G1 X91.100 Y67.856 E5.55949
G1 X91.100 Y62.902 E5.80807
G1 X91.027 Y62.154 E5.84584
G1 X90.796 Y61.395 E5.88564
G1 X90.243 Y60.420 E5.94188
G1 X89.206 Y59.239 E6.02075
G1 X87.447 Y57.387 E6.14894
G1 X86.485 Y56.060 E6.23121
G1 X85.718 Y54.561 E6.31573
G1 X85.130 Y52.773 E6.41018
G1 X84.986 Y51.965 E6.45136
G1 X85.154 Y51.908 E6.46028
G1 X86.067 Y53.670 E6.55990
G1 X87.250 Y55.194 E6.65669
G1 X88.689 Y56.478 E6.75348
G1 X90.337 Y57.480 E6.85027
G1 X92.139 Y58.167 E6.94706
G1 X94.036 Y58.516 E7.04384
G1 X95.964 Y58.516 E7.14063
G1 X97.861 Y58.167 E7.23742
G1 X99.663 Y57.480 E7.33421
G1 X101.311 Y56.478 E7.43100
G1 X102.750 Y55.194 E7.52779
G1 X103.933 Y53.670 E7.62458
G1 X104.846 Y51.908 E7.72419
G1 X105.014 Y51.965 E7.73312
G1 X104.870 Y52.773 E7.77429
G1 X104.282 Y54.561 E7.86875
G1 X103.515 Y56.060 E7.95326
G1 X102.553 Y57.387 E8.03554
G1 X100.794 Y59.239 E8.16373
G1 X99.757 Y60.420 E8.24260
G1 X99.204 Y61.394 E8.29880
G1 X98.695 Y63.055 E8.38599
G1 X145.273 Y63.055 E10.72354
G1 X144.843 Y61.394 E10.80965
G1 X144.399 Y60.443 E10.86232
G1 X143.395 Y59.119 E10.94573
G1 X141.161 Y56.702 E11.11088
G1 X139.952 Y55.047 E11.21375
G1 X138.994 Y53.189 E11.31866
G1 X138.260 Y50.967 E11.43611
G1 X138.048 Y49.780 E11.49664
G1 X138.221 Y49.725 E11.50575
G1 X139.286 Y52.008 E11.63216
G1 X140.696 Y54.021 E11.75554
G1 X142.434 Y55.760 E11.87892
G1 X144.448 Y57.170 E12.00230
G1 X146.676 Y58.209 E12.12568
G1 X149.051 Y58.845 E12.24906
G1 X151.500 Y59.060 E12.37244
G1 X153.949 Y58.845 E12.49583
G1 X156.324 Y58.209 E12.61921
G1 X158.552 Y57.170 E12.74259
G1 X160.566 Y55.760 E12.86597
G1 X162.304 Y54.021 E12.98935
G1 X163.714 Y52.008 E13.11273
G1 X164.774 Y49.736 E13.23853
G1 X164.947 Y49.791 E13.24767
G1 X164.715 Y51.057 E13.31227
G1 X164.006 Y53.188 E13.42498
G1 X163.048 Y55.047 E13.52994
G1 X161.839 Y56.702 E13.63281
G1 X159.605 Y59.119 E13.79796
G1 X158.601 Y60.443 E13.88137
G1 X158.157 Y61.395 E13.93410
G1 X157.962 Y62.157 E13.97355
G1 X157.900 Y62.911 E14.01152
G1 X157.900 Y67.796 E14.25667
G1 E12.25667 F2400.00000
G92 E0
G1 X130.900 Y71.693 F7200.000
G1 E2.00000 F2400.00000
G1 F900.000
G1 X130.900 Y75.356 E2.18380
G1 X128.559 Y75.356 E2.30129
G1 X130.748 Y71.652 E2.51721
G1 X130.842 Y71.678 E2.52212
G1 E0.52212 F2400.00000
G92 E0
G1 X120.441 Y75.356 F7200.000
G1 E2.00000 F2400.00000
G1 F900.000
G1 X118.100 Y75.356 E2.11749
G1 X118.100 Y71.693 E2.30129
G1 X118.252 Y71.652 E2.30922
G1 X120.410 Y75.304 E2.52212
G1 E0.52212 F2400.00000
G92 E0
G1 X131.245 Y68.201 F7200.000
G1 E2.00000 F2400.00000
G1 F2250.000
G1 X131.245 Y75.701 E2.37639
G1 X128.155 Y75.701 E2.53148
G1 X128.155 Y75.362 E2.54848
G1 X130.873 Y70.762 E2.81661
G1 X130.438 Y70.001 E2.86061
G1 X118.562 Y70.001 E3.45666
G1 X118.127 Y70.762 E3.50066
G1 X120.845 Y75.362 E3.76879
G1 X120.845 Y75.701 E3.78579
G1 X117.755 Y75.701 E3.94088
G1 X117.755 Y68.201 E4.31727
G1 X90.755 Y68.201 E5.67229
G1 X90.755 Y62.919 E5.93735
G1 X90.687 Y62.221 E5.97255
G1 X90.477 Y61.532 E6.00870
G1 X89.960 Y60.621 E6.06126
G1 X88.952 Y59.472 E6.13802
G1 X87.181 Y57.608 E6.26701
G1 X86.190 Y56.241 E6.35177
G1 X85.399 Y54.694 E6.43898
G1 X84.794 Y52.857 E6.53600
G1 X84.400 Y50.648 E6.64864
G1 X84.256 Y47.961 E6.78366
G1 X84.348 Y46.553 E6.85447
G1 X84.623 Y45.175 E6.92499
G1 X85.074 Y43.844 E6.99552
G1 X85.687 Y42.603 E7.06499
G1 X85.734 Y42.540 E7.06895
G1 X85.831 Y42.478 E7.07471
G1 X85.887 Y42.467 E7.07760
G1 X86.001 Y42.485 E7.08336
G1 X86.051 Y42.514 E7.08626
G1 X86.123 Y42.603 E7.09201
G1 X86.146 Y42.715 E7.09777
G1 X86.137 Y42.772 E7.10066
G1 X85.334 Y44.520 E7.19720
G1 X84.872 Y46.328 E7.29083
G1 X84.745 Y48.189 E7.38446
G1 X84.957 Y50.043 E7.47808
G1 X85.501 Y51.827 E7.57171
G1 X86.359 Y53.484 E7.66534
G1 X87.503 Y54.957 E7.75897
G1 X88.895 Y56.199 E7.85260
G1 X90.489 Y57.169 E7.94622
G1 X92.232 Y57.833 E8.03985
G1 X94.067 Y58.171 E8.13348
G1 X95.933 Y58.171 E8.22711
G1 X97.768 Y57.833 E8.32074
G1 X99.511 Y57.169 E8.41436
G1 X101.105 Y56.199 E8.50799
G1 X102.497 Y54.957 E8.60162
G1 X103.641 Y53.484 E8.69525
G1 X104.499 Y51.827 E8.78888
G1 X105.043 Y50.043 E8.88250
G1 X105.255 Y48.189 E8.97613
G1 X105.128 Y46.328 E9.06976
G1 X104.666 Y44.520 E9.16339
G1 X103.863 Y42.772 E9.25993
G1 X103.854 Y42.715 E9.26282
G1 X103.877 Y42.603 E9.26858
G1 X103.949 Y42.514 E9.27433
G1 X103.999 Y42.485 E9.27723
G1 X104.113 Y42.467 E9.28299
G1 X104.169 Y42.478 E9.28588
G1 X104.266 Y42.540 E9.29164
G1 X104.313 Y42.603 E9.29560
G1 X104.926 Y43.844 E9.36507
G1 X105.377 Y45.175 E9.43560
G1 X105.652 Y46.553 E9.50612
G1 X105.744 Y47.961 E9.57693
G1 X105.600 Y50.648 E9.71195
G1 X105.206 Y52.857 E9.82459
G1 X104.601 Y54.694 E9.92161
G1 X103.810 Y56.241 E10.00882
G1 X102.819 Y57.608 E10.09358
G1 X101.048 Y59.472 E10.22257
G1 X100.040 Y60.621 E10.29933
G1 X99.523 Y61.532 E10.35186
G1 X99.162 Y62.710 E10.41374
G1 X144.827 Y62.710 E12.70552
G1 X144.517 Y61.511 E12.76768
G1 X144.102 Y60.622 E12.81692
G1 X143.130 Y59.341 E12.89764
G1 X140.895 Y56.922 E13.06294
G1 X139.658 Y55.229 E13.16815
G1 X138.675 Y53.323 E13.27577
G1 X137.925 Y51.052 E13.39581
G1 X137.436 Y48.312 E13.53547
G1 X137.256 Y44.961 E13.70388
G1 X137.378 Y43.096 E13.79768
G1 X137.742 Y41.269 E13.89118
G1 X138.341 Y39.505 E13.98468
G1 X139.155 Y37.853 E14.07713
G1 X139.203 Y37.790 E14.08109
G1 X139.248 Y37.753 E14.08399
G1 X139.356 Y37.717 E14.08974
G1 X139.470 Y37.735 E14.09550
G1 X139.520 Y37.764 E14.09840
G1 X139.592 Y37.853 E14.10415
G1 X139.610 Y37.908 E14.10705
G1 X139.607 Y38.014 E14.11237
G1 X138.572 Y40.251 E14.23609
G1 X137.951 Y42.567 E14.35640
G1 X137.742 Y44.956 E14.47676
G1 X137.951 Y47.345 E14.59711
G1 X138.572 Y49.661 E14.71746
G1 X139.585 Y51.834 E14.83782
G1 X140.961 Y53.799 E14.95817
G1 X142.657 Y55.495 E15.07852
G1 X144.621 Y56.870 E15.19887
G1 X146.795 Y57.884 E15.31923
G1 X149.111 Y58.504 E15.43958
G1 X151.500 Y58.713 E15.55993
G1 X153.889 Y58.504 E15.68029
G1 X154.049 Y58.462 E15.68858
G1 X156.205 Y57.884 E15.80064
G1 X158.379 Y56.870 E15.92099
G1 X160.343 Y55.495 E16.04134
G1 X162.039 Y53.799 E16.16170
G1 X163.415 Y51.834 E16.28205
G1 X164.428 Y49.661 E16.40240
G1 X165.049 Y47.345 E16.52276
G1 X165.258 Y44.956 E16.64311
G1 X165.049 Y42.567 E16.76346
G1 X164.428 Y40.250 E16.88381
G1 X163.394 Y38.022 E17.00708
G1 X163.385 Y37.965 E17.00997
G1 X163.408 Y37.853 E17.01573
G1 X163.480 Y37.764 E17.02148
G1 X163.586 Y37.719 E17.02724
G1 X163.644 Y37.717 E17.03014
G1 X163.700 Y37.728 E17.03303
G1 X163.797 Y37.790 E17.03879
G1 X163.845 Y37.853 E17.04275
G1 X164.659 Y39.505 E17.13520
G1 X165.258 Y41.269 E17.22870
G1 X165.622 Y43.096 E17.32220
G1 X165.744 Y44.961 E17.41596
G1 X165.550 Y48.416 E17.58962
G1 X165.050 Y51.143 E17.72879
G1 X164.325 Y53.322 E17.84405
G1 X163.342 Y55.229 E17.95170
G1 X162.105 Y56.922 E18.05691
G1 X159.870 Y59.341 E18.22221
G1 X158.898 Y60.622 E18.30293
G1 X158.483 Y61.512 E18.35221
G1 X158.303 Y62.214 E18.38858
G1 X158.245 Y62.925 E18.42438
G1 X158.245 Y68.201 E18.68914
G1 X131.305 Y68.201 E20.04115
G1 X131.590 Y68.546 F7200.000
G1 F1125.000
G1 X131.590 Y76.046 E20.41754
G1 X127.810 Y76.046 E20.60724
G1 X127.810 Y75.268 E20.64628
G1 X130.474 Y70.759 E20.90910
G1 X130.238 Y70.346 E20.93299
G1 X118.762 Y70.346 E21.50894
G1 X118.526 Y70.759 E21.53284
G1 X121.190 Y75.268 E21.79565
G1 X121.190 Y76.046 E21.83469
G1 X117.410 Y76.046 E22.02439
G1 X117.410 Y68.546 E22.40079
G1 X90.410 Y68.546 E23.75581
G1 X90.410 Y62.936 E24.03734
G1 X90.347 Y62.289 E24.06997
G1 X90.158 Y61.669 E24.10248
G1 X89.678 Y60.822 E24.15135
G1 X88.697 Y59.704 E24.22599
G1 X86.916 Y57.829 E24.35579
G1 X85.895 Y56.422 E24.44304
G1 X85.079 Y54.827 E24.53293
G1 X84.459 Y52.942 E24.63251
G1 X84.057 Y50.687 E24.74745
G1 X83.911 Y47.959 E24.88457
G1 X84.006 Y46.508 E24.95754
G1 X84.289 Y45.086 E25.03033
G1 X84.755 Y43.712 E25.10313
G1 X85.391 Y42.421 E25.17535
G1 X85.483 Y42.299 E25.18303
G1 X85.593 Y42.209 E25.19013
G1 X85.721 Y42.149 E25.19723
G1 X85.859 Y42.121 E25.20433
G1 X86.001 Y42.126 E25.21144
G1 X86.137 Y42.166 E25.21854
G1 X86.259 Y42.236 E25.22564
G1 X86.361 Y42.334 E25.23274
G1 X86.437 Y42.454 E25.23984
G1 X86.482 Y42.588 E25.24694
G1 X86.493 Y42.729 E25.25405
G1 X86.471 Y42.869 E25.26115
G1 X85.661 Y44.636 E25.35872
G1 X85.214 Y46.383 E25.44919
G1 X85.091 Y48.181 E25.53965
G1 X85.296 Y49.972 E25.63012
G1 X85.821 Y51.696 E25.72059
G1 X86.651 Y53.297 E25.81105
G1 X87.756 Y54.721 E25.90152
G1 X89.101 Y55.921 E25.99199
G1 X90.641 Y56.858 E26.08246
G1 X92.326 Y57.500 E26.17292
G1 X94.099 Y57.826 E26.26339
G1 X95.901 Y57.826 E26.35386
G1 X97.674 Y57.500 E26.44432
G1 X99.359 Y56.858 E26.53479
G1 X100.899 Y55.921 E26.62526
G1 X102.244 Y54.721 E26.71572
G1 X103.349 Y53.297 E26.80619
G1 X104.179 Y51.696 E26.89666
G1 X104.704 Y49.972 E26.98713
G1 X104.909 Y48.181 E27.07759
G1 X104.786 Y46.383 E27.16806
G1 X104.339 Y44.636 E27.25853
G1 X103.529 Y42.869 E27.35610
G1 X103.507 Y42.729 E27.36320
G1 X103.518 Y42.588 E27.37030
G1 X103.563 Y42.454 E27.37740
G1 X103.639 Y42.334 E27.38451
G1 X103.741 Y42.236 E27.39161
G1 X103.863 Y42.166 E27.39871
G1 X103.999 Y42.126 E27.40581
G1 X104.141 Y42.121 E27.41291
G1 X104.279 Y42.149 E27.42001
G1 X104.407 Y42.210 E27.42712
G1 X104.517 Y42.299 E27.43422
G1 X104.609 Y42.421 E27.44189
G1 X105.245 Y43.712 E27.51412
G1 X105.711 Y45.086 E27.58691
G1 X105.994 Y46.508 E27.65971
G1 X106.089 Y47.959 E27.73268
G1 X105.943 Y50.687 E27.86980
G1 X105.541 Y52.942 E27.98473
G1 X104.921 Y54.827 E28.08432
G1 X104.105 Y56.422 E28.17421
G1 X103.084 Y57.829 E28.26146
G1 X101.303 Y59.704 E28.39125
G1 X100.322 Y60.822 E28.46590
G1 X99.842 Y61.669 E28.51476
G1 X99.628 Y62.366 E28.55133
G1 X144.382 Y62.366 E30.79734
G1 X144.191 Y61.628 E30.83555
G1 X143.805 Y60.801 E30.88135
G1 X142.865 Y59.563 E30.95939
G1 X140.628 Y57.141 E31.12484
G1 X139.363 Y55.411 E31.23240
G1 X138.356 Y53.457 E31.34272
G1 X137.590 Y51.137 E31.46535
G1 X137.092 Y48.352 E31.60731
G1 X136.911 Y44.959 E31.77782
G1 X137.036 Y43.051 E31.87378
G1 X137.408 Y41.180 E31.96956
G1 X138.021 Y39.373 E32.06533
G1 X138.860 Y37.671 E32.16053
G1 X138.952 Y37.549 E32.16821
G1 X139.062 Y37.459 E32.17531
G1 X139.190 Y37.399 E32.18241
G1 X139.328 Y37.371 E32.18951
G1 X139.470 Y37.376 E32.19661
G1 X139.606 Y37.416 E32.20371
G1 X139.728 Y37.486 E32.21082
G1 X139.830 Y37.584 E32.21792
G1 X139.906 Y37.704 E32.22502
G1 X139.951 Y37.838 E32.23212
G1 X139.962 Y37.979 E32.23922
G1 X139.940 Y38.116 E32.24616
G1 X138.897 Y40.369 E32.37076
G1 X138.292 Y42.627 E32.48807
G1 X138.088 Y44.956 E32.60539
G1 X138.292 Y47.284 E32.72272
G1 X138.776 Y49.089 E32.81649
G1 X138.897 Y49.543 E32.84004
G1 X139.885 Y51.661 E32.95737
G1 X141.226 Y53.576 E33.07469
G1 X142.879 Y55.229 E33.19202
G1 X144.794 Y56.570 E33.30934
G1 X146.913 Y57.558 E33.42666
G1 X149.171 Y58.163 E33.54399
G1 X151.500 Y58.367 E33.66131
G1 X153.829 Y58.163 E33.77864
G1 X153.959 Y58.128 E33.78541
G1 X156.087 Y57.558 E33.89596
G1 X158.206 Y56.570 E34.01329
G1 X160.121 Y55.229 E34.13061
G1 X161.774 Y53.576 E34.24793
G1 X163.115 Y51.661 E34.36526
G1 X164.103 Y49.543 E34.48258
G1 X164.708 Y47.284 E34.59991
G1 X164.912 Y44.956 E34.71723
G1 X164.708 Y42.627 E34.83455
G1 X164.103 Y40.369 E34.95188
G1 X163.133 Y38.289 E35.06706
G1 X163.061 Y38.119 E35.07631
G1 X163.038 Y37.979 E35.08341
G1 X163.049 Y37.838 E35.09052
G1 X163.094 Y37.704 E35.09762
G1 X163.170 Y37.584 E35.10472
G1 X163.272 Y37.486 E35.11182
G1 X163.394 Y37.416 E35.11892
G1 X163.530 Y37.376 E35.12602
G1 X163.672 Y37.371 E35.13313
G1 X163.810 Y37.399 E35.14023
G1 X163.938 Y37.459 E35.14733
G1 X164.048 Y37.549 E35.15443
G1 X164.140 Y37.671 E35.16211
G1 X164.979 Y39.373 E35.25731
G1 X165.592 Y41.180 E35.35308
G1 X165.964 Y43.051 E35.44885
G1 X166.089 Y44.959 E35.54480
G1 X165.893 Y48.457 E35.72060
G1 X165.385 Y51.229 E35.86206
G1 X164.644 Y53.457 E35.97988
G1 X163.637 Y55.411 E36.09021
G1 X162.372 Y57.141 E36.19777
G1 X160.135 Y59.563 E36.36322
G1 X159.195 Y60.801 E36.44126
G1 X158.809 Y61.629 E36.48707
G1 X158.645 Y62.271 E36.52036
G1 X158.590 Y62.939 E36.55399
G1 X158.590 Y68.546 E36.83535
G1 X131.650 Y68.546 E38.18736
G1 X131.191 Y68.573 F7200.000
G1 E36.18736 F2400.00000
G92 E0
G1 X130.797 Y72.796 F7200.000
G1 E2.00000 F2400.00000
G1 F1500.000
G1 X130.530 Y72.529 E2.02084
G1 X130.330 Y72.867 E2.04246
G1 X130.642 Y73.178 E2.06675
G1 X130.642 Y73.714 E2.09636
